!!!!SEGMENT: pl-cz--ii-129--012_kozllowski-jozef--requiem-requiem.krn
!!!cenid: 18xx:935
!!!COM: Kozłowski, Józef
!!!COM-rismID: pe30003850
!!!CDT: 1757-1831
!!!CNT: Polish
!!!OPR: Requiem
!!!OTL: Requiem
!!!OMV: 012
!!!PDT:
!!!AGN: Sacred; Requiem
!!!SMS-siglum: PL-CZ
!!!SMS-shelfmark: II-129
!!!SMS-shelfwork: 001-012 M
!!!SMS-variant:
!!!SMS-altvar:
!!!NIFC-rismSourceID: 300000626
!!!NIFC-rismChildID: 300000626
!!!NIFC-islandoraID: pl-cz:32191
!!!URL-pdf-islandora: https://repozytorium.nifc.pl/islandora/object/pl-cz%3A32191/datastream/PDF/view
!!!URL-scan: https://polish.musicsources.pl/pl/lokalizacje/galeria/rekopisy/6756/1 @EN{Scan on Polish Music Sources Website} @PL{Skany w portalu Dziedzictwo Muzyki Polskiej w otwartym dostępie}
!!!IIIF:
!!!ONB-nifc: UWAGA: części Requiem: Requiem, Dies irae, Tuba mirrum, Judex ergo, Confutatis, Lacrimosa, Offertorium, Sanctus, O rex intende hostias, Agnus Dei, Quia pius es, Requiem, Salve Regina
!!!AIN: 1 bass 1 cbass 1 cello 2 clars 2 cor 2 fagot 2 flt 2 oboe 1 soprn 1 tenor 1 timpa 1 troma 1 tromb 2 tromp 1 tromt 1 viola 2 violn
!!!key: e-
**kern	**dynam	**kern	**kern	**dynam	**kern	**kern	**dynam	**kern	**text	**dynam	**kern	**text	**dynam	**kern	**text	**dynam	**kern	**kern	**dynam	**kern	**dynam	**kern	**dynam	**kern	**dynam	**kern	**dynam	**kern	**dynam	**kern	**dynam	**kern	**dynam	**kern	**dynam	**kern	**dynam	**kern	**dynam	**kern	**dynam	**kern	**dynam	**kern	**dynam	**kern	**dynam
*part24	*part24	*part23	*part22	*part22	*part21	*part20	*part20	*part19	*part19	*part19	*part18	*part18	*part18	*part17	*part17	*part17	*part16	*part15	*part15	*part14	*part14	*part13	*part13	*part12	*part12	*part11	*part11	*part10	*part10	*part9	*part9	*part8	*part8	*part7	*part7	*part6	*part6	*part5	*part5	*part4	*part4	*part3	*part3	*part2	*part2	*part1	*part1
*staff24	*	*staff23	*staff22	*	*staff21	*staff20	*	*staff19	*staff19	*	*staff18	*staff18	*	*staff17	*staff17	*	*staff16	*staff15	*	*staff14	*	*staff13	*	*staff12	*	*staff11	*	*staff10	*	*staff9	*	*staff8	*	*staff7	*	*staff6	*	*staff5	*	*staff4	*	*staff3	*	*staff2	*	*staff1	*
*I"Baſso.	*	*I"Violoncello.	*I"Alto Viola.	*	*I"Violino 2do.	*I"Violino Imo.	*	*I"Baſso.	*	*	*I"Tenore.	*	*	*I"Soprano.	*	*	*I"Timpani in C.	*I"Trombano Baſso.	*	*I"Trombano Tenore	*	*I"Trombano Alto	*	*I"Tromba IIdo in Es.	*	*I"Tromba Imo in Es.	*	*I"Corno ſecundo in Es.	*	*I"Corno Imo in Es.	*	*I"Fagotto IIdo	*	*I"Fagotto Imo	*	*I"Clarinetto ſecundo in B.	*	*I"Clarinetto Primo in B.	*	*I"Oboe ſecundo	*	*I"Oboe Primo	*	*I"Flauto. ſecundo.	*	*I"Flauto Primo	*
*I'b	*	*I'vlc	*I'a-vla	*	*I'vl II	*I'vl I	*	*I'B	*	*	*I'T	*	*	*I'S	*	*	*I'timp	*I'b-trb	*	*I't-trb	*	*I'a-trb	*	*I'tr II	*	*I'tr I	*	*I'cor II	*	*I'cor I	*	*I'fag II	*	*I'fag I	*	*I'cl II	*	*I'cl I	*	*I'ob II	*	*I'ob I	*	*I'fl II	*	*I'fl I	*
*ICstr	*	*ICstr	*ICstr	*	*ICstr	*ICstr	*	*ICvox	*	*	*ICvox	*	*	*ICvox	*	*	*ICidio	*ICbras	*	*ICbras	*	*ICbras	*	*ICbras	*	*ICbras	*	*ICbras	*	*ICbras	*	*ICww	*	*ICww	*	*ICww	*	*ICww	*	*ICww	*	*ICww	*	*ICww	*	*ICww	*
*Icbass	*	*Icello	*Iviola	*	*Ivioln	*Ivioln	*	*Ibass	*	*	*Itenor	*	*	*Isoprn	*	*	*Itimpa	*Itromb	*	*Itromt	*	*Itroma	*	*Itromp	*	*Itromp	*	*Icor	*	*Icor	*	*Ifagot	*	*Ifagot	*	*Iclars	*	*Iclars	*	*Ioboe	*	*Ioboe	*	*Iflt	*	*Iflt	*
*clefF4	*	*clefF4	*clefC3	*	*clefG2	*clefG2	*	*clefF4	*	*	*clefC4	*	*	*clefC1	*	*	*clefF4	*clefF4	*	*clefC4	*	*clefC3	*	*clefG2	*	*clefG2	*	*clefG2	*	*clefG2	*	*clefF4	*	*clefF4	*	*clefG2	*	*clefG2	*	*clefG2	*	*clefG2	*	*clefG2	*	*clefG2	*
*e-:	*	*e-:	*e-:	*	*e-:	*e-:	*	*e-:	*	*	*e-:	*	*	*e-:	*	*	*e-:	*e-:	*	*e-:	*	*e-:	*	*e-:	*	*e-:	*	*e-:	*	*e-:	*	*e-:	*	*e-:	*	*e-:	*	*e-:	*	*e-:	*	*e-:	*	*e-:	*	*e-:	*
*	*	*	*	*	*	*	*	*	*	*	*	*	*	*	*	*	*	*	*	*	*	*	*	*ITrd-2c-3	*	*ITrd-2c-3	*	*ITrd5c9	*	*ITrd5c9	*	*	*	*	*	*ITrd1c2	*	*ITrd1c2	*	*	*	*	*	*	*	*	*
*k[b-e-a-d-g-c-]	*	*k[b-e-a-d-g-c-]	*k[b-e-a-d-g-c-]	*	*k[b-e-a-d-g-c-]	*k[b-e-a-d-g-c-]	*	*k[b-e-a-d-g-c-]	*	*	*k[b-e-a-d-g-c-]	*	*	*k[b-e-a-d-g-c-]	*	*	*k[b-e-a-d-g-c-]	*k[b-e-a-d-g-c-]	*	*k[b-e-a-d-g-c-]	*	*k[b-e-a-d-g-c-]	*	*k[b-e-a-]	*	*k[b-e-a-]	*	*k[b-e-a-]	*	*k[b-e-a-]	*	*k[b-e-a-d-g-c-]	*	*k[b-e-a-d-g-c-]	*	*k[b-e-a-d-g-c-]	*	*k[b-e-a-d-g-c-]	*	*k[b-e-a-d-g-c-]	*	*k[b-e-a-d-g-c-]	*	*k[b-e-a-d-g-c-]	*	*k[b-e-a-d-g-c-]	*
*M4/4	*	*M4/4	*M4/4	*	*M4/4	*M4/4	*	*M4/4	*	*	*M4/4	*	*	*M4/4	*	*	*M4/4	*M4/4	*	*M4/4	*	*M4/4	*	*M4/4	*	*M4/4	*	*M4/4	*	*M4/4	*	*M4/4	*	*M4/4	*	*M4/4	*	*M4/4	*	*M4/4	*	*M4/4	*	*M4/4	*	*M4/4	*
*met(c)	*	*met(c)	*met(c)	*	*met(c)	*met(c)	*	*met(c)	*	*	*met(c)	*	*	*met(c)	*	*	*met(c)	*met(c)	*	*met(c)	*	*met(c)	*	*met(c)	*	*met(c)	*	*met(c)	*	*met(c)	*	*met(c)	*	*met(c)	*	*met(c)	*	*met(c)	*	*met(c)	*	*met(c)	*	*met(c)	*	*met(c)	*
=1	=1	=1	=1	=1	=1	=1	=1	=1	=1	=1	=1	=1	=1	=1	=1	=1	=1	=1	=1	=1	=1	=1	=1	=1	=1	=1	=1	=1	=1	=1	=1	=1	=1	=1	=1	=1	=1	=1	=1	=1	=1	=1	=1	=1	=1	=1	=1
!!LO:TX:t=P:problem:metrum c z kropką	!	!	!	!	!	!	!	!	!	!	!	!	!	!	!	!	!	!	!	!	!	!	!	!	!	!	!	!	!	!	!	!	!	!	!	!	!	!	!	!	!	!	!	!	!	!	!
!!LO:TX:t=P:problem:all\right	!	!	!	!	!	!	!	!	!	!	!	!	!	!	!	!	!	!	!	!	!	!	!	!	!	!	!	!	!	!	!	!	!	!	!	!	!	!	!	!	!	!	!	!	!	!	!
!	!	!	!	!	!	!	!	!	!	!	!	!	!	!	!	!	!	!	!	!	!	!	!	!	!	!	!	!	!	!	!	!	!	!	!	!	!	!	!	!	!	!	!	!	!	!LO:TX:a:t=7	!
!	!	!	!	!	!	!	!	!	!	!	!	!	!	!	!	!	!	!	!	!LO:TX:b:t=1	!	!LO:TX:b:t=1	!	!	!	!	!	!	!	!	!	!	!	!	!	!	!	!	!	!	!	!	!	!	!	!LO:TX:a:Bi:t=Lešteſso Tempo.	!
!	!	!	!	!	!	!	!	!	!	!	!LO:TX:b:Bi:t=Adagio	!	!	!LO:TX:b:Bi:t=Adagio	!	!	!	!LO:TX:a:t=1	!	!LO:TX:a:t=1	!	!LO:TX:a:t=1	!	!LO:TX:a:t=1	!	!LO:TX:a:Bi:t=Lesteſšo Tempo.	!	!LO:TX:a:t=1.	!	!LO:TX:a:t=1	!	!LO:TX:a:t=1	!	!LO:TX:a:t=1	!	!LO:TX:a:t=1	!	!LO:TX:a:t=1	!	!LO:TX:a:t=1	!	!	!	!LO:TX:a:t=7	!	!LO:TX:t=P:global:problem=caudy z prawej strony	!
!LO:TX:a:Bi:t=Lešteſštešo Tempo.	!	!LO:TX:a:i:t=Tacet.	!	!	!LO:TX:a:Bi:t=Adagio	!	!	!LO:TX:b:Bi:t=Adagio	!	!	!LO:TX:a:Bi:t=Adagio	!	!	!LO:TX:a:Bi:t=Adagio	!	!	!LO:TX:a:i:t=Tacet.	!LO:TX:a:Bi:t=Lešteso Tempo.	!	!LO:TX:a:Bi:t=Lesteſšo Tempo.	!	!LO:TX:a:Bi:t=Lesteſšo Tempo.	!	!LO:TX:a:Bi:t=Lestešo Tempo.	!	!LO:TX:a:t=1	!	!LO:TX:a:Bi:t=Lesteſšo Tempo.	!	!LO:TX:a:Bi:t=Lestešo Tempo.	!	!LO:TX:a:Bi:t=Lestešo Tempo.	!	!LO:TX:a:Bi:t=Lestešo Tempo.	!	!LO:TX:a:Bi:t=Lesteſso Tempo.	!	!LO:TX:a:Bi:t=Lestešo Tempo.	!	!LO:TX:a:Bi:t=Lešteſso Tempo.	!	!LO:TX:a:Bi:t=Leštešo Tempo.	!	!LO:TX:a:Bi:t=Leštešo. Tempo.	!	!LO:TX:a:B:t=Adagio	!
4E-\	p <	1ryy	8G-/	p	8B-/	8e-/	.	2E-\	num	.	2B-\	num	.	2e-/	num	.	1ryy	1r	.	1r	.	1r	.	1r	.	1r	.	1r	.	1r	.	1r	.	1r	.	1r	.	1r	.	1r	.	1r	.	1r	.	4b-\	.
.	.	.	4G-/	.	4B-/	4e-/	.	.	.	.	.	.	.	.	.	.	.	.	.	.	.	.	.	.	.	.	.	.	.	.	.	.	.	.	.	.	.	.	.	.	.	.	.	.	.	.	.
4E-\	.	.	.	.	.	.	.	.	.	.	.	.	.	.	.	.	.	.	.	.	.	.	.	.	.	.	.	.	.	.	.	.	.	.	.	.	.	.	.	.	.	.	.	.	.	4r	.
.	.	.	4G-/	.	4B-/	4e-/	.	.	.	.	.	.	.	.	.	.	.	.	.	.	.	.	.	.	.	.	.	.	.	.	.	.	.	.	.	.	.	.	.	.	.	.	.	.	.	.	.
4E-\	.	.	.	.	.	.	.	2r	.	.	2r	.	.	2r	.	.	.	.	.	.	.	.	.	.	.	.	.	.	.	.	.	.	.	.	.	.	.	.	.	.	.	.	.	.	.	2r	.
.	.	.	4G-/	.	4B-/	4e-/	.	.	.	.	.	.	.	.	.	.	.	.	.	.	.	.	.	.	.	.	.	.	.	.	.	.	.	.	.	.	.	.	.	.	.	.	.	.	.	.	.
4E-\	[	.	.	.	.	.	.	.	.	.	.	.	.	.	.	.	.	.	.	.	.	.	.	.	.	.	.	.	.	.	.	.	.	.	.	.	.	.	.	.	.	.	.	.	.	.	.
.	.	.	8G-/	.	8B-/	8e-/	.	.	.	.	.	.	.	.	.	.	.	.	.	.	.	.	.	.	.	.	.	.	.	.	.	.	.	.	.	.	.	.	.	.	.	.	.	.	.	.	.
=2	=2	=2	=2	=2	=2	=2	=2	=2	=2	=2	=2	=2	=2	=2	=2	=2	=2	=2	=2	=2	=2	=2	=2	=2	=2	=2	=2	=2	=2	=2	=2	=2	=2	=2	=2	=2	=2	=2	=2	=2	=2	=2	=2	=2	=2	=2	=2
!	!	!	!	!	!	!	!	!LO:TX:a:t=7.	!	!	!	!	!	!LO:TX:a:t=7	!	!	!	!	!	!	!	!	!	!	!LO:DY:a	!	!LO:DY:a	!	!	!	!	!	!	!	!	!	!	!	!	!	!	!	!	!	!	!	!
1E-	sfz >	1ryy	1G- 1B-	.	8B-/	8e-/	.	1r	.	.	1r	.	.	1r	.	.	1ryy	1E-^	sfz	1B-^	sf	1g-^	sfz	[2e-/	sf >	[2e-/	sfz >	1E-^	sf	1e-^	f	1G-^	sf	1B-^	sf	4r	.	4r	.	4r	.	4r	.	1r	.	1r	.
.	.	.	.	.	8r	8r	.	.	.	.	.	.	.	.	.	.	.	.	.	.	.	.	.	.	.	.	.	.	.	.	.	.	.	.	.	.	.	.	.	.	.	.	.	.	.	.	.
.	.	.	.	.	4b-/	4bb-\	.	.	.	.	.	.	.	.	.	.	.	.	.	.	.	.	.	.	.	.	.	.	.	.	.	.	.	.	.	4b-'^\	fz	4b-'^\	f	4b-'^\	fz	4bb-^\	fz	.	.	.	.
.	.	.	.	.	4g-X/	4gg-\	.	.	.	.	.	.	.	.	.	.	.	.	.	.	.	.	.	8e-/]	]	8e-/]	]	.	.	.	.	.	.	.	.	4g-'^\	.	4g-'^\	.	4g-'^/	.	4gg-^\	.	.	.	.	.
.	.	.	.	.	.	.	.	.	.	.	.	.	.	.	.	.	.	.	.	.	.	.	.	8r	.	8r	.	.	.	.	.	.	.	.	.	.	.	.	.	.	.	.	.	.	.	.	.
.	]	.	.	.	4e-/	4ee-\	.	.	.	.	.	.	.	.	.	.	.	.	.	.	.	.	.	4r	.	4r	.	.	.	.	.	.	.	.	.	4e-'^\	.	4e-'^\	.	4e-'^/	.	4ee-^\	.	.	.	.	.
=3	=3	=3	=3	=3	=3	=3	=3	=3	=3	=3	=3	=3	=3	=3	=3	=3	=3	=3	=3	=3	=3	=3	=3	=3	=3	=3	=3	=3	=3	=3	=3	=3	=3	=3	=3	=3	=3	=3	=3	=3	=3	=3	=3	=3	=3	=3	=3
!	!	!	!	!	!	!	!	!	!	!	!	!	!	!	!	!	!	!LO:TX:a:t=1	!	!LO:TX:a:t=1	!	!LO:TX:a:t=1	!	!LO:TX:a:t=1	!	!LO:TX:a:t=1	!	!LO:TX:a:t=1	!	!LO:TX:a:t=1	!	!LO:TX:a:t=1	!	!	!	!LO:TX:a:t=1	!	!LO:TX:a:t=1	!	!LO:TX:a:t=1	!	!LO:TX:a:t=1	!	!	!	!	!
4E-\	p <	1ryy	8A-/	.	8c-X/	8f/	.	1r	.	.	1r	.	.	1r	.	.	1ryy	1r	.	1r	.	1r	.	1r	.	1r	.	1r	.	1r	.	1r	.	1r	.	1r	.	1r	.	1r	.	1r	.	1r	.	1r	.
.	.	.	4A-/	.	4c-/	4f/	.	.	.	.	.	.	.	.	.	.	.	.	.	.	.	.	.	.	.	.	.	.	.	.	.	.	.	.	.	.	.	.	.	.	.	.	.	.	.	.	.
4E-\	.	.	.	.	.	.	.	.	.	.	.	.	.	.	.	.	.	.	.	.	.	.	.	.	.	.	.	.	.	.	.	.	.	.	.	.	.	.	.	.	.	.	.	.	.	.	.
.	.	.	4A-/	.	4c-/	4f/	.	.	.	.	.	.	.	.	.	.	.	.	.	.	.	.	.	.	.	.	.	.	.	.	.	.	.	.	.	.	.	.	.	.	.	.	.	.	.	.	.
4E-\	.	.	.	.	.	.	.	.	.	.	.	.	.	.	.	.	.	.	.	.	.	.	.	.	.	.	.	.	.	.	.	.	.	.	.	.	.	.	.	.	.	.	.	.	.	.	.
.	.	.	4A-/	.	4c-/	4f/	.	.	.	.	.	.	.	.	.	.	.	.	.	.	.	.	.	.	.	.	.	.	.	.	.	.	.	.	.	.	.	.	.	.	.	.	.	.	.	.	.
4E-\	[	.	.	.	.	.	.	.	.	.	.	.	.	.	.	.	.	.	.	.	.	.	.	.	.	.	.	.	.	.	.	.	.	.	.	.	.	.	.	.	.	.	.	.	.	.	.
.	.	.	8A-/	.	8c-/	8f/	.	.	.	.	.	.	.	.	.	.	.	.	.	.	.	.	.	.	.	.	.	.	.	.	.	.	.	.	.	.	.	.	.	.	.	.	.	.	.	.	.
!LO:LB:g=original	!	!	!	!	!LO:LB:g=original	!LO:LB:g=original	!	!	!	!	!	!	!	!	!	!	!	!	!	!	!	!	!	!	!	!	!	!	!	!	!	!	!	!	!	!	!	!	!	!	!	!	!	!	!	!	!
!	!	!	!	!	!	!	!	!	!	!	!	!	!	!	!	!	!	!	!	!LO:LB:g=original	!	!	!	!	!	!	!	!	!	!	!	!	!	!	!	!LO:LB:g=original	!	!	!	!	!	!	!	!	!	!	!
=4	=4	=4	=4	=4	=4	=4	=4	=4	=4	=4	=4	=4	=4	=4	=4	=4	=4	=4	=4	=4	=4	=4	=4	=4	=4	=4	=4	=4	=4	=4	=4	=4	=4	=4	=4	=4	=4	=4	=4	=4	=4	=4	=4	=4	=4	=4	=4
!	!	!	!	!	!	!	!	!	!	!	!	!	!	!	!	!	!	!	!	!	!	!	!	!	!LO:DY:a	!	!LO:DY:a	!	!	!	!	!	!	!	!	!	!	!	!	!	!	!	!	!	!	!	!
1E-	sfz >	1ryy	1A- 1c-	.	8c-/	8f/	.	1r	.	.	1r	.	.	1r	.	.	1ryy	1E-	sfz	1c-	sfz	1a-^	sf	[2e-/	sf >	[2e-/	sfz >	1E-^	sfz	1e-^	f	1A-^	sf	1c-^	sf	4r	.	4r	.	4r	.	4r	.	1r	.	1r	.
.	.	.	.	.	8r	8r	.	.	.	.	.	.	.	.	.	.	.	.	.	.	.	.	.	.	.	.	.	.	.	.	.	.	.	.	.	.	.	.	.	.	.	.	.	.	.	.	.
!	!	!	!	!	!	!	!	!	!	!	!	!	!	!	!	!	!	!	!	!	!	!	!	!	!	!	!	!	!	!	!	!	!	!	!	!	!	!	!LO:DY:t=fo	!	!	!	!	!	!	!	!
.	.	.	.	.	4cc-\	4ccc-\	.	.	.	.	.	.	.	.	.	.	.	.	.	.	.	.	.	.	.	.	.	.	.	.	.	.	.	.	.	4cc-'^\	.	4cc-^\	f	4cc-^/	.	4ccc-^\	.	.	.	.	.
.	.	.	.	.	4a-/	4aa-\	.	.	.	.	.	.	.	.	.	.	.	.	.	.	.	.	.	8e-/]	]	8e-/]	]	.	.	.	.	.	.	.	.	4a-'^\	.	4a-^\	.	4a-^/	.	4aa-^\	.	.	.	.	.
.	.	.	.	.	.	.	.	.	.	.	.	.	.	.	.	.	.	.	.	.	.	.	.	8r	.	8r	.	.	.	.	.	.	.	.	.	.	.	.	.	.	.	.	.	.	.	.	.
.	]	.	.	.	4f/	4ff\	.	.	.	.	.	.	.	.	.	.	.	.	.	.	.	.	.	4r	.	4r	.	.	.	.	.	.	.	.	.	4f'^\	.	4f^\	.	4f^/	.	4ff^\	.	.	.	.	.
!	!	!	!	!	!	!	!	!	!	!	!	!	!	!	!	!	!	!	!	!	!	!	!	!	!	!	!	!	!	!	!	!	!	!	!	!	!	!LO:LB:g=original	!	!LO:LB:g=original	!	!LO:LB:g=original	!	!	!	!	!
!	!	!	!	!	!	!	!	!	!	!	!	!	!	!	!	!	!	!LO:LB:g=original	!	!	!	!	!	!	!	!	!	!	!	!	!	!LO:LB:g=original	!	!	!	!	!	!	!	!	!	!	!	!	!	!	!
=5	=5	=5	=5	=5	=5	=5	=5	=5	=5	=5	=5	=5	=5	=5	=5	=5	=5	=5	=5	=5	=5	=5	=5	=5	=5	=5	=5	=5	=5	=5	=5	=5	=5	=5	=5	=5	=5	=5	=5	=5	=5	=5	=5	=5	=5	=5	=5
!	!	!	!	!	!	!	!	!	!	!	!	!	!	!	!	!	!	!LO:TX:a:t=1	!	!LO:TX:a:t=1	!	!LO:TX:a:t=1	!	!LO:TX:a:t=1	!	!LO:TX:a:t=1	!	!LO:TX:a:t=1	!	!LO:TX:a:t=1	!	!LO:TX:a:t=1	!	!	!	!LO:TX:a:t=1	!	!LO:TX:a:t=1	!	!LO:TX:a:t=1	!	!	!	!	!	!	!
4E-\	p <	1ryy	8B-/	.	8dn/	8gn/	.	1r	.	.	1r	.	.	1r	.	.	1ryy	1r	.	1r	.	1r	.	1r	.	1r	.	1r	.	1r	.	1r	.	1r	.	1r	.	1r	.	1r	.	1r	.	1r	.	1r	.
.	.	.	4B-/	.	4d/	4g/	.	.	.	.	.	.	.	.	.	.	.	.	.	.	.	.	.	.	.	.	.	.	.	.	.	.	.	.	.	.	.	.	.	.	.	.	.	.	.	.	.
4E-\	.	.	.	.	.	.	.	.	.	.	.	.	.	.	.	.	.	.	.	.	.	.	.	.	.	.	.	.	.	.	.	.	.	.	.	.	.	.	.	.	.	.	.	.	.	.	.
.	.	.	4B-/	.	4d/	4g/	.	.	.	.	.	.	.	.	.	.	.	.	.	.	.	.	.	.	.	.	.	.	.	.	.	.	.	.	.	.	.	.	.	.	.	.	.	.	.	.	.
4E-\	.	.	.	.	.	.	.	.	.	.	.	.	.	.	.	.	.	.	.	.	.	.	.	.	.	.	.	.	.	.	.	.	.	.	.	.	.	.	.	.	.	.	.	.	.	.	.
.	.	.	4B-/	.	4d/	4g/	.	.	.	.	.	.	.	.	.	.	.	.	.	.	.	.	.	.	.	.	.	.	.	.	.	.	.	.	.	.	.	.	.	.	.	.	.	.	.	.	.
4E-\	[	.	.	.	.	.	.	.	.	.	.	.	.	.	.	.	.	.	.	.	.	.	.	.	.	.	.	.	.	.	.	.	.	.	.	.	.	.	.	.	.	.	.	.	.	.	.
.	.	.	8B-/	.	8d/	8g/	.	.	.	.	.	.	.	.	.	.	.	.	.	.	.	.	.	.	.	.	.	.	.	.	.	.	.	.	.	.	.	.	.	.	.	.	.	.	.	.	.
!	!	!	!	!	!	!	!	!	!	!	!	!	!	!	!	!	!	!	!	!	!	!	!	!	!	!	!	!	!	!	!	!	!	!LO:LB:g=original	!	!	!	!	!	!	!	!	!	!	!	!	!
!	!	!	!	!	!	!	!	!	!	!	!	!	!	!	!	!	!	!	!	!	!	!LO:LB:g=original	!	!	!	!	!	!	!	!	!	!	!	!	!	!	!	!	!	!	!	!	!	!	!	!	!
=6	=6	=6	=6	=6	=6	=6	=6	=6	=6	=6	=6	=6	=6	=6	=6	=6	=6	=6	=6	=6	=6	=6	=6	=6	=6	=6	=6	=6	=6	=6	=6	=6	=6	=6	=6	=6	=6	=6	=6	=6	=6	=6	=6	=6	=6	=6	=6
!	!	!	!	!	!	!	!	!	!	!	!	!	!	!	!	!	!	!	!	!	!	!	!	!	!LO:DY:a	!	!LO:DY:a	!	!	!	!	!	!	!	!	!	!	!	!	!	!	!	!	!	!	!	!
1E-	sfz >	1ryy	1B- 1d-X	.	8d-/	8gn/	.	1r	.	.	1r	.	.	1r	.	.	1ryy	[1E-^	sfz	(1d-^	sf	(1b-^	sfz	[2e-/	sf >	[2e-/	sfz >	1E-^	sf	1e-^	fz	1B-^	sf	1d-^	sf	4r	.	4r	.	4r	.	4r	.	1r	.	1r	.
.	.	.	.	.	8r	8r	.	.	.	.	.	.	.	.	.	.	.	.	.	.	.	.	.	.	.	.	.	.	.	.	.	.	.	.	.	.	.	.	.	.	.	.	.	.	.	.	.
.	.	.	.	.	4dd-X\	4ddd-\	.	.	.	.	.	.	.	.	.	.	.	.	.	.	.	.	.	.	.	.	.	.	.	.	.	.	.	.	.	4dd-X'^\	.	4dd-X^\	.	4dd-X^\	.	4ddd-^\	.	.	.	.	.
.	.	.	.	.	4b-\	4bb-\	.	.	.	.	.	.	.	.	.	.	.	.	.	.	.	.	.	8e-/]	]	8e-/]	]	.	.	.	.	.	.	.	.	4b-'^\	.	4b-^\	.	4b-^\	.	4bb-^\	.	.	.	.	.
.	.	.	.	.	.	.	.	.	.	.	.	.	.	.	.	.	.	.	.	.	.	.	.	8r	.	8r	.	.	.	.	.	.	.	.	.	.	.	.	.	.	.	.	.	.	.	.	.
.	]	.	.	.	4gn/	4ggn\	.	.	.	.	.	.	.	.	.	.	.	.	.	.	.	.	.	4r	.	4r	.	.	.	.	.	.	.	.	.	4g'^\	.	4g^\	.	4gn^\	.	4ggn^\	.	.	.	.	.
!	!	!	!	!	!	!	!	!	!	!	!	!	!	!	!	!	!	!	!	!	!	!	!	!LO:LB:g=original	!	!LO:LB:g=original	!	!	!	!LO:LB:g=original	!	!	!	!	!	!	!	!	!	!	!	!	!	!	!	!	!
=7	=7	=7	=7	=7	=7	=7	=7	=7	=7	=7	=7	=7	=7	=7	=7	=7	=7	=7	=7	=7	=7	=7	=7	=7	=7	=7	=7	=7	=7	=7	=7	=7	=7	=7	=7	=7	=7	=7	=7	=7	=7	=7	=7	=7	=7	=7	=7
!	!	!	!	!	!	!	!	!	!	!	!	!	!	!	!	!	!	!	!	!	!	!	!	!	!LO:DY:a	!	!	!	!	!	!	!	!	!	!	!	!	!	!	!	!	!	!	!	!	!	!
2E-\	sfz <	1ryy	2A-/ 2c-	.	4.a-\	4.aa-\	.	1r	.	.	1r	.	.	1r	.	.	1ryy	4E-\]	.	4c-\)	sf	4a-\)	sfz	2e-^/	sf	2e-^/	sfz	2E-^/	.	2e-^\	fz	2A-\	sf >	2c-\	sf	4a-\	.	4a-\	.	(4.a-\	fz	4.aa-\	sfz	1r	.	1r	.
.	.	.	.	.	.	.	.	.	.	.	.	.	.	.	.	.	.	4r	.	4r	.	4r	.	.	.	.	.	.	.	.	.	.	.	.	.	4r	.	4r	.	.	.	.	.	.	.	.	.
.	.	.	.	.	8b-\	8bb-\	.	.	.	.	.	.	.	.	.	.	.	.	.	.	.	.	.	.	.	.	.	.	.	.	.	.	.	.	.	.	.	.	.	8b-\)	.	8bb-\	>]	.	.	.	.
!	!	!	!	!	!	!	!	!	!	!	!	!	!	!	!	!	!	!	!	!	!	!	!	!	!	!	!	!	!	!	!	!	!	!	!LO:DY:t=po	!	!	!	!	!	!	!	!	!	!	!	!
4E-\	.	.	4A-/ 4c-	.	8cc-\L	8ccc-\L	.	.	.	.	.	.	.	.	.	.	.	2r	.	2r	.	2r	.	2r	.	2r	.	4E-/	p	4e-\	p	4A-\	]	4c-\	p	2r	.	2r	.	8cc-'\L	.	8ccc-'\L	<	.	.	.	.
.	.	.	.	.	8cc-\	8ccc-\	.	.	.	.	.	.	.	.	.	.	.	.	.	.	.	.	.	.	.	.	.	.	.	.	.	.	.	.	.	.	.	.	.	8cc-'\	.	8ccc-'\	.	.	.	.	.
!	!	!	!	!	!	!	!	!	!	!	!	!	!	!	!	!	!	!	!	!	!	!	!	!	!	!	!	!	!	!	!	!	!LO:DY:t=po	!	!	!	!	!	!	!	!	!	!	!	!	!	!
4E-\	[	.	8A-/L 8c-	.	8cc-\	8ccc-\	.	.	.	.	.	.	.	.	.	.	.	.	.	.	.	.	.	.	.	.	.	8E-/L	<	8e-\L	<	8A-\L	p	8c-\L	.	.	.	.	.	8cc-'\	.	8ccc-'\	.	.	.	.	.
.	.	.	8A-/J 8c-	.	8cc-\J	8ccc-\J	.	.	.	.	.	.	.	.	.	.	.	.	.	.	.	.	.	.	.	.	.	8E-/J	[	8e-\J	[	8A-\J	<[	8c-\J	<[	.	.	.	.	8cc-'\J	.	8ccc-'\J	[	.	.	.	.
!	!	!	!LO:LB:g=original	!	!	!	!	!	!	!	!	!	!	!	!	!	!	!	!	!	!	!	!	!	!	!	!	!	!	!	!	!	!	!	!	!	!	!	!	!	!	!	!	!	!	!	!
!	!	!	!	!	!	!	!	!	!	!	!	!	!	!	!	!	!	!	!	!	!	!	!	!	!	!	!	!LO:LB:g=original	!	!	!	!	!	!	!	!	!	!	!	!	!	!	!	!	!	!	!
=8	=8	=8	=8	=8	=8	=8	=8	=8	=8	=8	=8	=8	=8	=8	=8	=8	=8	=8	=8	=8	=8	=8	=8	=8	=8	=8	=8	=8	=8	=8	=8	=8	=8	=8	=8	=8	=8	=8	=8	=8	=8	=8	=8	=8	=8	=8	=8
!	!	!	!	!	!	!	!	!	!	!	!	!	!	!	!	!	!	!	!	!	!	!	!	!	!LO:DY:a	!LO:TX:t=P:problem=takt przepełniony 2 z kropką i pauza 2	!	!	!	!	!	!	!	!	!	!	!	!	!	!	!	!	!	!	!	!	!
4E-\	sfz <	1ryy	8A-/ 8dn	.	8cc-\	8ccc-\	.	1r	.	.	1r	.	.	1r	.	.	1ryy	[1E-^	sf	(1A-^	sf	(1c-^	sfz	2e-^/	sf	2e-^/	sfz	2.E-/	.	2.E-/	>	8A-\	.	8c-\	.	4r	.	4r	.	8cc-\	.	8ccc-\	.	4r	.	4r	.
.	.	.	4A-/ 4d	.	4f/	4ddn\	.	.	.	.	.	.	.	.	.	.	.	.	.	.	.	.	.	.	.	.	.	.	.	.	.	8r	.	8r	.	.	.	.	.	8r	.	8r	.	.	.	.	.
4E-\	.	.	.	.	.	.	.	.	.	.	.	.	.	.	.	.	.	.	.	.	.	.	.	.	.	.	.	.	.	.	.	2A-\	sf >	2c-\	sf >	(2a-\	sfz >	(2dd\	sfz	2ff^\	sf	2aa-\	sfz	2ff\	sf	2ddd-\	sf
.	.	.	4A-/ 4d	.	4f/	4dd\	.	.	.	.	.	.	.	.	.	.	.	.	.	.	.	.	.	.	.	.	.	.	.	.	.	.	.	.	.	.	.	.	.	.	.	.	.	.	.	.	.
4E-\	.	.	.	.	.	.	.	.	.	.	.	.	.	.	.	.	.	.	.	.	.	.	.	2r	.	2r	.	.	.	.	.	.	.	.	.	.	.	.	.	.	.	.	.	.	.	.	.
.	.	.	4A-/ 4d	.	4f/	8dd\	.	.	.	.	.	.	.	.	.	.	.	.	.	.	.	.	.	.	.	.	.	.	.	.	.	.	.	.	.	.	.	.	.	.	.	.	.	.	.	.	.
!	!	!	!	!	!	!	!	!	!	!	!	!	!	!	!	!	!	!	!	!	!	!	!	!	!	!	!	!	!	!	!	!	!	!	!	!	!	!	!	!	!LO:DY:t=po	!	!	!	!	!	!
4E-\	[	.	.	.	.	8aa-\L	.	.	.	.	.	.	.	.	.	.	.	.	.	.	.	.	.	.	.	.	.	4E-/	.	4E-/	]	(4A-\	]	(4c-\	]	4a-\	]	4dd\	>]	(4ff\	p	(4aa-\	> ]	(4ff\	>	(4ddd-\	>
.	.	.	8A-/ 8d	.	8f/	8a-\J	.	.	.	.	.	.	.	.	.	.	.	.	.	.	.	.	.	.	.	.	.	.	.	.	.	.	.	.	.	.	.	.	.	.	.	.	.	.	]	.	]
!	!	!	!	!	!LO:LB:g=original	!LO:LB:g=original	!	!	!	!	!	!	!	!	!	!	!	!	!	!	!	!	!	!	!	!	!	!	!	!	!	!	!	!	!	!	!	!	!	!	!	!	!	!	!	!	!
=9	=9	=9	=9	=9	=9	=9	=9	=9	=9	=9	=9	=9	=9	=9	=9	=9	=9	=9	=9	=9	=9	=9	=9	=9	=9	=9	=9	=9	=9	=9	=9	=9	=9	=9	=9	=9	=9	=9	=9	=9	=9	=9	=9	=9	=9	=9	=9
!	!	!	!	!	!	!	!	!	!	!	!	!	!	!	!	!	!	!	!	!	!	!	!	!LO:TX:a:t=4.	!	!LO:TX:a:t=4.	!	!	!	!	!	!	!	!	!	!	!	!	!	!	!	!	!	!	!	!	!
!	!	!	!	!	!	!	!	!	!	!	!	!	!	!	!	!	!	!	!	!	!	!	!	!	!	!	!	!	!	!	!	!	!	!	!	!	!	!	!	!	!	!	!	!	!	!	!LO:DY:t=po
!	!	!	!	!	!	!	!	!	!	!	!	!	!	!	!	!	!	!	!	!	!	!	!	!	!	!	!	!	!	!	!	!	!	!	!	!	!LO:DY:t=po	!	!	!	!	!	!	!	!	!	!
!	!	!	!	!	!	!	!	!	!	!	!	!	!	!	!	!	!	!	!LO:DY:t=po	!	!	!	!	!	!	!	!	!	!	!	!	!	!LO:DY:t=po	!	!	!	!	!	!	!	!	!	!	!	!	!	!
2.E-\	p <	1ryy	4G-/ 4e-	.	4B-/ 4e-	4g-/	.	2.E-\	Re-	<	2.B-\	Re-	.	2.g-\	Re-	.	1ryy	4E-\]	p	8G-/)	.	8B-/)	pp	1r	.	1r	.	8E-/	.	8E-/	.	8G-\)	p	8B-\)	p	8g-/)	p	8ee-\)	.	8ee-\)	.	8gg-\)	.	8gg-\)	.	8eee-\)	p
.	.	.	.	.	.	.	.	.	.	.	.	.	.	.	.	.	.	.	.	8r	.	8r	.	.	.	.	.	8r	.	8r	.	8r	.	8r	.	8r	.	8r	.	8r	.	8r	.	8r	.	8r	.
.	.	.	2B-/	.	2B-/ 2e-	2g-/	.	.	.	.	.	.	.	.	.	.	.	4r	.	4r	.	4r	.	.	.	.	.	4r	.	4r	.	4r	.	4r	.	4r	.	4r	.	4r	.	4r	.	4r	.	4r	.
.	[	.	.	.	.	.	.	.	.	[	.	.	.	.	.	.	.	2r	.	2r	.	2r	.	.	.	.	.	2r	.	2r	.	2r	.	2r	.	2r	.	2r	.	2r	.	2r	.	2r	.	2r	.
4E-\	>]	.	4B-/	.	4B-/ 4e-	4g-/	.	4E-\	-qui-	>]	4B-\	-qui-	.	4g-\	-qui-	.	.	.	.	.	.	.	.	.	.	.	.	.	.	.	.	.	.	.	.	.	.	.	.	.	.	.	.	.	.	.	.
!LO:LB:g=original	!	!	!	!	!	!	!	!	!	!	!LO:LB:g=original	!	!	!	!	!	!	!	!	!	!	!	!	!	!	!	!	!	!	!	!	!	!	!	!	!	!	!	!	!	!	!	!	!	!	!LO:LB:g=original	!
!	!	!	!	!	!	!	!	!	!	!	!	!	!	!	!	!	!	!	!	!	!	!	!	!	!	!	!	!	!	!	!	!	!	!	!	!LO:LB:g=original	!	!	!	!	!	!	!	!LO:LB:g=original	!	!	!
=10	=10	=10	=10	=10	=10	=10	=10	=10	=10	=10	=10	=10	=10	=10	=10	=10	=10	=10	=10	=10	=10	=10	=10	=10	=10	=10	=10	=10	=10	=10	=10	=10	=10	=10	=10	=10	=10	=10	=10	=10	=10	=10	=10	=10	=10	=10	=10
!	!	!	!	!	!	!	!	!	!	!	!	!	!	!	!	!	!	!LO:TX:a:t=3.	!	!LO:TX:a:t=3.	!	!LO:TX:a:t=3.	!	!	!	!	!	!	!	!	!	!LO:TX:a:t=1	!	!	!	!LO:TX:a:t=3.	!	!LO:TX:a:t=3.	!	!LO:TX:a:t=5.	!	!LO:TX:a:t=5.	!	!LO:TX:a:t=6.	!	!LO:TX:a:t=6.	!
4BB-/	.	1ryy	4B-/	.	4B-/ 4dn	4f/	.	4BB-/	-em	.	4B-\	-em	.	4f/	-em	.	1ryy	1r	.	1r	.	1r	.	1r	.	1r	.	4r	.	4r	.	1r	.	1r	.	1r	.	1r	.	1r	.	1r	.	1r	.	1r	.
!	!	!	!	!	!	!	!	!	!	!	!	!	!	!	!	!	!	!	!	!	!	!	!	!	!	!	!	!LO:TX:a:i:t=ſolo	!	!	!	!	!	!	!	!	!	!	!	!	!	!	!	!	!	!	!
!	!	!	!	!	!	!	!	!	!	!	!	!	!	!	!	!	!	!	!	!	!	!	!	!	!	!	!	!	!LO:DY:t=po	!	!	!	!	!	!	!	!	!	!	!	!	!	!	!	!	!	!
4r	.	.	4r	.	4r	4r	.	4r	.	.	4r	.	.	4r	.	.	.	.	.	.	.	.	.	.	.	.	.	(4BB-'/	p	(4B-'/	.	.	.	.	.	.	.	.	.	.	.	.	.	.	.	.	.
2r	.	.	2r	.	2r	2r	.	4r	.	.	4r	.	.	4r	.	.	.	.	.	.	.	.	.	.	.	.	.	4BB-'/	.	4B-'/	.	.	.	.	.	.	.	.	.	.	.	.	.	.	.	.	.
.	.	.	.	.	.	.	.	4B-\	ae-	.	4B-\	ae-	.	4f/	e-	.	.	.	.	.	.	.	.	.	.	.	.	4BB-'/	.	4B-'/)	.	.	.	.	.	.	.	.	.	.	.	.	.	.	.	.	.
!	!	!	!	!	!	!	!	!LO:LB:g=original	!	!	!	!	!	!	!	!	!	!	!	!	!	!	!	!	!	!	!	!	!	!	!	!	!	!	!	!	!	!	!	!	!	!	!	!	!	!	!
=11	=11	=11	=11	=11	=11	=11	=11	=11	=11	=11	=11	=11	=11	=11	=11	=11	=11	=11	=11	=11	=11	=11	=11	=11	=11	=11	=11	=11	=11	=11	=11	=11	=11	=11	=11	=11	=11	=11	=11	=11	=11	=11	=11	=11	=11	=11	=11
!	!	!	!	!	!	!	!	!	!	!	!	!	!	!	!	!	!	!	!	!	!	!	!	!	!	!	!	!	!	!	!	!	!	!LO:TX:b:i:t=ſolo	!	!	!	!	!	!	!	!	!	!	!	!	!
!	!	!	!	!	!	!	!	!	!	!	!	!	!	!	!	!	!	!	!	!	!	!	!	!	!	!	!	!	!	!	!	!	!	!	!LO:DY:t=po	!	!	!	!	!	!	!	!	!	!	!	!
2.Dn\	<	1ryy	4B-/	.	4f/	4a-/	.	1Dn	-ter-	<	1B-	-ter-	.	1a-	-ter-	.	1ryy	1r	.	1r	.	1r	.	1r	.	1r	.	4BB-'/)	.	4B-/	sf	(1A-	pp <	(1f	p <	1r	.	1r	.	1r	.	1r	.	1r	.	1r	.
.	.	.	2B-/	.	2a-/	2ff\	.	.	.	[	.	.	.	.	.	.	.	.	.	.	.	.	.	.	.	.	.	4r	.	4r	.	.	[	.	[	.	.	.	.	.	.	.	.	.	.	.	.
.	[	.	.	.	.	.	.	.	.	>	.	.	.	.	.	.	.	.	.	.	.	.	.	.	.	.	.	2r	.	2r	.	.	>	.	>]	.	.	.	.	.	.	.	.	.	.	.	.
4D\	>]	.	4B-/	.	4a-/	4a-/	.	.	.	]	.	.	.	.	.	.	.	.	.	.	.	.	.	.	.	.	.	.	.	.	.	.	]	.	.	.	.	.	.	.	.	.	.	.	.	.	.
=12	=12	=12	=12	=12	=12	=12	=12	=12	=12	=12	=12	=12	=12	=12	=12	=12	=12	=12	=12	=12	=12	=12	=12	=12	=12	=12	=12	=12	=12	=12	=12	=12	=12	=12	=12	=12	=12	=12	=12	=12	=12	=12	=12	=12	=12	=12	=12
4E-\	.	1ryy	4B-/	.	4e-/	4g-/	.	4E-\	-nam	.	4B-\	-nam	.	4g-\	-nam	.	1ryy	1r	.	1r	.	1r	.	1r	.	1r	.	4r	.	4r	.	4G-\)	.	4e-\)	.	1r	.	1r	.	1r	.	1r	.	1r	.	1r	.
4r	.	.	4r	.	4r	4r	.	4r	.	.	4r	.	.	4r	.	.	.	.	.	.	.	.	.	.	.	.	.	(4BB-'/	.	(4B-'/	.	4r	.	4r	.	.	.	.	.	.	.	.	.	.	.	.	.
!	!	!	!	!	!LO:TX:t=Volti Subitto	!	!	!	!	!	!	!	!	!	!	!	!	!	!	!	!	!	!	!	!	!	!	!	!	!	!	!	!	!	!	!	!	!	!	!	!	!	!	!	!	!	!
2r	.	.	2r	.	2r	2r	.	2r	.	.	2r	.	.	2r	.	.	.	.	.	.	.	.	.	.	.	.	.	4BB-'/	.	4B-'/	.	2r	.	2r	.	.	.	.	.	.	.	.	.	.	.	.	.
.	.	.	.	.	.	.	.	.	.	.	.	.	.	.	.	.	.	.	.	.	.	.	.	.	.	.	.	4BB-'/	.	4B-'/)	.	.	.	.	.	.	.	.	.	.	.	.	.	.	.	.	.
!	!	!	!	!	!	!	!	!	!	!	!	!	!	!	!	!	!	!	!	!	!	!	!	!	!	!	!	!	!	!	!	!	!	!LO:LB:g=original	!	!	!	!	!	!	!	!	!	!	!	!	!
!	!	!	!	!	!LO:LB:g=original	!	!	!	!	!	!	!	!	!	!	!	!	!	!LO:LB:g=original	!	!	!	!	!	!	!	!	!	!	!	!	!	!	!	!	!	!	!	!	!	!	!	!	!	!	!	!
=13	=13	=13	=13	=13	=13	=13	=13	=13	=13	=13	=13	=13	=13	=13	=13	=13	=13	=13	=13	=13	=13	=13	=13	=13	=13	=13	=13	=13	=13	=13	=13	=13	=13	=13	=13	=13	=13	=13	=13	=13	=13	=13	=13	=13	=13	=13	=13
*	*	*	*	*	*tremolo	*	*	*	*	*	*	*	*	*	*	*	*	*	*	*	*	*	*	*	*	*	*	*	*	*	*	*	*	*	*	*	*	*	*	*	*	*	*	*	*	*	*
!	!	!	!	!	!	!	!	!	!	!	!	!	!	!	!	!	!	!	!	!	!	!	!	!	!LO:DY:a	!	!	!	!	!	!	!	!	!	!	!	!	!	!	!	!	!	!	!	!	!	!
(2G-\	sfz	1ryy	2B-/	.	(8e-/L	2b-\	.	(2G-\	do-	>	2.B-\	do-	.	2b-\	do-	.	1ryy	2G-^\	sfz	2e-^\	sfz	2b-^\	sfz f	2B-^/	sf	2b-^/	sfz	2BB-'^/)	f	2B-/	sf	2G-^\	sf	2e-^\	sf	2e-^/	sf	2b-^\	sf	1r	.	1r	.	1r	.	1r	.
.	.	.	.	.	8B-/	.	.	.	.	.	.	.	.	.	.	.	.	.	.	.	.	.	.	.	.	.	.	.	.	.	.	.	.	.	.	.	.	.	.	.	.	.	.	.	.	.	.
.	.	.	.	.	8e-	.	.	.	.	.	.	.	.	.	.	.	.	.	.	.	.	.	.	.	.	.	.	.	.	.	.	.	.	.	.	.	.	.	.	.	.	.	.	.	.	.	.
.	.	.	.	.	8B-/J)	.	.	.	.	]	.	.	.	.	.	.	.	.	.	.	.	.	.	.	.	.	.	.	.	.	.	.	.	.	.	.	.	.	.	.	.	.	.	.	.	.	.
4Dn\	.	.	4dn\	.	(8f/L	4a-/	.	4Dn\)	.	.	.	.	.	4a-\	.	.	.	2r	.	2r	.	2r	.	2r	.	2r	.	2r	.	2r	.	2r	.	2r	.	2r	.	2r	.	.	.	.	.	.	.	.	.
.	.	.	.	.	8B-/	.	.	.	.	.	.	.	.	.	.	.	.	.	.	.	.	.	.	.	.	.	.	.	.	.	.	.	.	.	.	.	.	.	.	.	.	.	.	.	.	.	.
4E-\)	.	.	4e-\	.	8e-/	4g-/	.	4E-\	-na	.	4B-\	-na	.	4g-\	-na	.	.	.	.	.	.	.	.	.	.	.	.	.	.	.	.	.	.	.	.	.	.	.	.	.	.	.	.	.	.	.	.
.	.	.	.	.	8B-/J)	.	.	.	.	.	.	.	.	.	.	.	.	.	.	.	.	.	.	.	.	.	.	.	.	.	.	.	.	.	.	.	.	.	.	.	.	.	.	.	.	.	.
!	!	!	!	!	!	!	!	!	!	!	!	!	!	!LO:LB:g=original	!	!	!	!	!	!	!	!	!	!	!	!	!	!	!	!	!	!	!	!	!	!	!	!	!	!	!	!	!	!	!	!	!
!	!	!	!	!	!	!	!	!	!	!	!	!	!	!	!	!	!	!	!	!	!	!	!	!	!	!	!	!	!	!	!	!	!	!	!	!	!	!LO:LB:g=original	!	!	!	!	!	!	!	!	!
!	!	!	!	!	!	!	!	!	!	!	!	!	!	!	!	!	!	!	!	!	!	!	!	!	!	!	!	!	!	!LO:LB:g=original	!	!	!	!	!	!	!	!	!	!	!	!	!	!	!	!	!
=14	=14	=14	=14	=14	=14	=14	=14	=14	=14	=14	=14	=14	=14	=14	=14	=14	=14	=14	=14	=14	=14	=14	=14	=14	=14	=14	=14	=14	=14	=14	=14	=14	=14	=14	=14	=14	=14	=14	=14	=14	=14	=14	=14	=14	=14	=14	=14
!	!	!	!	!	!	!	!	!	!	!	!	!	!	!	!	!	!	!	!	!	!	!	!	!	!	!	!	!	!	!	!	!	!	!	!	!	!	!	!	!	!	!	!	!	!	!	!
!	!	!	!	!	!	!	!	!	!	!	!	!	!	!	!	!	!	!	!	!	!	!	!	!	!LO:DY:a	!	!	!	!	!	!	!	!	!	!	!	!	!	!	!	!	!	!	!	!	!	!
(2G-\	sfz	1ryy	2B-/	.	8e-/L	8b-/L	.	2G-\	do-	.	2.B-\	do-	.	2b-\	do-	.	1ryy	2G-^\	sf	2e-^\	fz	2b-^\	sf	2B-^/	sf	2b-^/	sfz	2BB-/	sf	2B-^/	sfz	2G-^\	sf	2e-^\	sf	2e-^/	sf	2b-\	.	1r	.	1r	.	1r	.	1r	.
.	.	.	.	.	8B-/	8e-/	.	.	.	.	.	.	.	.	.	.	.	.	.	.	.	.	.	.	.	.	.	.	.	.	.	.	.	.	.	.	.	.	.	.	.	.	.	.	.	.	.
.	.	.	.	.	8e-/	8g-/	.	.	.	.	.	.	.	.	.	.	.	.	.	.	.	.	.	.	.	.	.	.	.	.	.	.	.	.	.	.	.	.	.	.	.	.	.	.	.	.	.
.	.	.	.	.	8B-/J	8b-/J	.	.	.	.	.	.	.	.	.	.	.	.	.	.	.	.	.	.	.	.	.	.	.	.	.	.	.	.	.	.	.	.	.	.	.	.	.	.	.	.	.
4Dn\	p	.	4dn\	.	8f/L	8a-/L	.	4Dn\	.	.	.	.	.	4a-\	.	.	.	2r	.	2r	.	2r	.	2r	.	2r	.	2r	.	2r	.	2r	.	2r	.	2r	.	2r	.	.	.	.	.	.	.	.	.
.	.	.	.	.	8B-/	8B-/	.	.	.	.	.	.	.	.	.	.	.	.	.	.	.	.	.	.	.	.	.	.	.	.	.	.	.	.	.	.	.	.	.	.	.	.	.	.	.	.	.
4E-\)	.	.	4e-\	.	8e-/	8g-/	.	4E-\	-na	.	4B-\	-na	.	4g-\	-na	.	.	.	.	.	.	.	.	.	.	.	.	.	.	.	.	.	.	.	.	.	.	.	.	.	.	.	.	.	.	.	.
.	.	.	.	.	8B-/J	8B-/J	.	.	.	.	.	.	.	.	.	.	.	.	.	.	.	.	.	.	.	.	.	.	.	.	.	.	.	.	.	.	.	.	.	.	.	.	.	.	.	.	.
*	*	*	*	*	*	*	*	*	*	*	*	*	*	*	*	*	*	*	*	*	*	*	*	*	*	*	*	*	*	*	*	*	*	*clefC4	*	*	*	*	*	*	*	*	*	*	*	*	*
!	!	!	!	!	!	!LO:LB:g=original	!	!	!	!	!	!	!	!	!	!	!	!	!	!	!	!	!	!	!	!	!	!	!	!	!	!	!	!	!	!	!	!	!	!	!	!	!	!	!	!	!
!	!	!	!	!	!	!	!	!	!	!	!	!	!	!	!	!	!	!	!	!	!	!	!	!	!	!	!	!	!	!	!	!	!	!	!	!	!	!	!	!LO:LB:g=original	!	!	!	!	!	!	!
!	!	!	!	!	!	!	!	!	!	!	!	!	!	!	!	!	!	!LO:LB:g=original	!	!	!	!	!	!	!	!	!	!LO:LB:g=original	!	!	!	!	!	!	!	!	!	!	!	!	!	!	!	!	!	!	!
=15	=15	=15	=15	=15	=15	=15	=15	=15	=15	=15	=15	=15	=15	=15	=15	=15	=15	=15	=15	=15	=15	=15	=15	=15	=15	=15	=15	=15	=15	=15	=15	=15	=15	=15	=15	=15	=15	=15	=15	=15	=15	=15	=15	=15	=15	=15	=15
!	!	!	!	!	!	!	!	!	!	!	!	!	!	!	!	!	!	!LO:TX:a:t=2	!	!LO:TX:a:t=2	!	!LO:TX:a:t=2	!	!LO:TX:a:t=1	!	!	!	!	!	!	!	!	!	!	!	!	!	!	!	!	!	!	!	!	!	!	!
8F\	.	1ryy	2.B-/	.	8dn/	8a-/L	.	(4F\	e-	<	2.B-\	e-	.	2a-\	e-	.	1ryy	1r	.	1r	.	1r	.	1r	.	1r	.	4r	.	4r	.	4r	.	4r	.	1r	.	1r	.	4r	.	4r	.	1r	.	1r	.
8r	.	.	.	.	4B-/	8B-/	.	.	.	[	.	.	.	.	.	.	.	.	.	.	.	.	.	.	.	.	.	.	.	.	.	.	.	.	.	.	.	.	.	.	.	.	.	.	.	.	.
!LO:LB:g=original	!	!	!	!	!	!	!	!	!	!	!	!	!	!	!	!	!	!	!	!	!	!	!	!	!	!	!	!LO:TX:a:i:t=ſolo	!	!	!	!	!	!	!	!	!	!	!	!	!	!	!	!	!	!	!
!	!	!	!	!	!	!	!	!	!	!	!	!	!	!	!	!	!	!	!	!	!	!	!	!	!	!	!	!	!	!	!	!	!	!	!	!	!	!	!	!	!LO:DY:t=po	!	!LO:DY:t=po	!	!	!	!
!	!	!	!	!	!	!	!	!	!	!	!	!	!	!	!	!	!	!	!	!	!	!	!	!	!	!	!	!	!LO:DY:t=po	!	!	!	!LO:DY:t=po	!	!	!	!	!	!	!	!	!	!	!	!	!	!
(4Dn\	.	.	.	.	.	8f/	.	4Dn\)	.	.	.	.	.	.	.	.	.	.	.	.	.	.	.	.	.	.	.	8B-/	p	8f\	.	8dn\	p	8f\	.	.	.	.	.	8ff\	p	8aa-\	p	.	.	.	.
.	.	.	.	.	8f/	8a-/J	.	.	.	.	.	.	.	.	.	.	.	.	.	.	.	.	.	.	.	.	.	8r	.	8r	.	8r	.	8r	.	.	.	.	.	8r	.	8r	.	.	.	.	.
8E-\)	.	.	.	.	8f/L	8g-/L	.	4E-\	-i	.	.	.	.	2g-\	-i	.	.	.	.	.	.	.	.	.	.	.	.	4r	.	4r	.	4r	.	4r	.	.	.	.	.	4r	.	4r	.	.	.	.	.
8r	.	.	.	.	8B-/	8B-/	.	.	.	.	.	.	.	.	.	.	.	.	.	.	.	.	.	.	.	.	.	.	.	.	.	.	.	.	.	.	.	.	.	.	.	.	.	.	.	.	.
(4AAn/	.	.	8g-\L	.	8c-/	8e-/	.	4AAn/	.	.	4cn\	-i	.	.	.	.	.	.	.	.	.	.	.	.	.	.	.	8e-\	.	8g-X\	.	8e-\	.	8g-\	.	.	.	.	.	8ee-\	.	8gg-\	.	.	.	.	.
.	.	.	8e-\J	.	8e-/J	8g-/J	.	.	.	.	.	.	.	.	.	.	.	.	.	.	.	.	.	.	.	.	.	8r	.	8r	.	8r	.	8r	.	.	.	.	.	8r	.	8r	.	.	.	.	.
!	!	!	!	!	!	!	!	!	!	!	!	!	!	!	!	!	!	!	!	!	!	!	!	!	!	!	!	!	!	!	!	!	!	!	!	!	!	!	!	!	!	!LO:LB:g=original	!	!LO:LB:g=original	!	!	!
=16	=16	=16	=16	=16	=16	=16	=16	=16	=16	=16	=16	=16	=16	=16	=16	=16	=16	=16	=16	=16	=16	=16	=16	=16	=16	=16	=16	=16	=16	=16	=16	=16	=16	=16	=16	=16	=16	=16	=16	=16	=16	=16	=16	=16	=16	=16	=16
8BB-/)	.	1ryy	4B-`/	.	8dn/	8f/	.	8.BB-/	Do-	.	8.d-\	Do-	.	8.f/	Do-	.	1ryy	1r	.	1r	.	1r	.	2r	.	2r	.	8B-/	.	8f\	.	8dn\	.	8f\	.	4r	.	4r	.	8ddn\	.	8ff\	.	2r	.	2r	.
8r	.	.	.	.	8r	8r	.	.	.	.	.	.	.	.	.	.	.	.	.	.	.	.	.	.	.	.	.	8r	.	8r	.	8r	.	8r	.	.	.	.	.	8r	.	8r	.	.	.	.	.
.	.	.	.	.	.	.	.	16BB-/	-mi-	.	16B-\	-mi-	.	16f/	-mi-	.	.	.	.	.	.	.	.	.	.	.	.	.	.	.	.	.	.	.	.	.	.	.	.	.	.	.	.	.	.	.	.
!	!	!	!	!	!	!	!	!	!	!	!	!	!	!	!	!	!	!	!	!	!	!	!	!	!	!	!	!	!	!	!	!	!	!	!	!	!LO:DY:t=po	!	!LO:DY:t=po	!	!	!	!	!	!	!	!
(2B-\	<	.	(2B-/	.	8.d/L	8.b-\L	.	4BB-/	-ne	.	4B-\	-ne	.	4f/	-ne	.	.	.	.	.	.	.	.	.	.	.	.	4r	.	4r	.	(4B-\	<	(4dn\	.	(2b-\	p <	4b-\	p <	4r	.	4r	.	.	.	.	.
.	.	.	.	.	16d/Jk	16b-\Jk	.	.	.	.	.	.	.	.	.	.	.	.	.	.	.	.	.	.	.	.	.	.	.	.	.	.	.	.	.	.	.	.	.	.	.	.	.	.	.	.	.
!	!	!	!	!	!	!	!	!	!	!	!LO:LB:g=original	!	!	!	!	!	!	!	!	!	!	!	!	!	!	!	!	!	!	!	!	!	!	!	!	!	!	!	!	!	!	!	!	!	!	!	!
.	.	.	.	.	8.e-/L	8.ccn\L	.	4r	.	.	4r	.	.	4r	.	.	.	.	.	.	.	.	.	4r	.	4r	.	4r	.	4r	.	4cn\	.	4e-\	.	.	.	4cc\	.	4r	.	4r	.	4r	.	4r	.
.	.	.	.	.	16e-/Jk	16cc\Jk	.	.	.	.	.	.	.	.	.	.	.	.	.	.	.	.	.	.	.	.	.	.	.	.	.	.	.	.	.	.	.	.	.	.	.	.	.	.	.	.	.
4A-X\)	[	.	4A-X/)	.	8.f/L	8.dd-\L	.	4B-\	et	f	4B-\	et	.	4b-\	et	.	.	.	.	.	.	.	.	8.B-/L	f	8.b-/L	f	4B-/	f	4f\	f	4d\)	[	4f\)	.	4b-\)	[	4dd\	[	4b-\	sfz	4bb-\	fz	4bb-\	fz	4bb-\	fz
.	.	.	.	.	16f/Jk	16dd-\Jk	.	.	.	.	.	.	.	.	.	.	.	.	.	.	.	.	.	16B-/Jk	.	16b-/Jk	.	.	.	.	.	.	.	.	.	.	.	.	.	.	.	.	.	.	.	.	.
!	!	!	!LO:LB:g=original	!	!LO:LB:g=original	!	!	!LO:LB:g=original	!	!	!	!	!	!	!	!	!	!	!	!	!	!	!	!	!	!	!	!	!	!	!	!	!	!	!	!	!	!	!	!	!	!	!	!	!	!	!
!	!	!	!	!	!	!	!	!	!	!	!	!	!	!	!	!	!	!	!	!	!	!LO:LB:g=original	!	!LO:LB:g=original	!	!LO:LB:g=original	!	!	!	!	!	!	!	!	!	!	!	!	!	!	!	!	!	!	!	!	!
=17	=17	=17	=17	=17	=17	=17	=17	=17	=17	=17	=17	=17	=17	=17	=17	=17	=17	=17	=17	=17	=17	=17	=17	=17	=17	=17	=17	=17	=17	=17	=17	=17	=17	=17	=17	=17	=17	=17	=17	=17	=17	=17	=17	=17	=17	=17	=17
*	*	*	*tremolo	*	*	*	*	*	*	*	*	*	*	*	*	*	*	*	*	*	*	*	*	*	*	*	*	*	*	*	*	*	*	*	*	*	*	*	*	*	*	*	*	*	*	*	*
!	!	!	!	!	!	!LO:TX:t=P:problem=mixed beam	!	!	!	!	!	!	!	!	!	!	!	!	!	!	!	!	!	!	!	!	!	!	!	!	!	!	!	!	!	!	!	!	!	!	!	!	!	!	!	!	!
!	!LO:DY:t=fo	!	!	!	!	!	!	!	!	!	!	!	!	!	!	!	!	!	!	!	!	!	!	!	!	!	!	!	!	!	!	!	!	!	!	!	!	!	!	!	!	!	!	!	!	!	!
4G-\	f	1ryy	8G-X/L	.	8e-/ 8b-	8ee-\L	.	2G-\	lux	.	2E-/	lux	.	2.ee-\	lux	.	1ryy	2G-\	.	2B-\	.	2e-\	.	2.e-/	.	2.ee-\	.	2.E-/	.	2.e-\	.	2.B-\	.	2.e-\	.	2b-\	.	2ee-\	.	(1ee-	.	(1bb-	.	(1bb-	.	(2.eee-\	.
.	.	.	8G-X/	.	4e-/ 4b-	8e-\	.	.	.	.	.	.	.	.	.	.	.	.	.	.	.	.	.	.	.	.	.	.	.	.	.	.	.	.	.	.	.	.	.	.	.	.	.	.	.	.	.
!LO:TX:b:i:t=marcato	!	!	!	!	!	!	!	!	!	!	!	!	!	!	!	!	!	!	!	!	!	!	!	!	!	!	!	!	!	!	!	!	!	!	!	!	!	!	!	!	!	!	!	!	!	!	!
4G-\	.	.	8G-X/	.	.	8g-\	.	.	.	.	.	.	.	.	.	.	.	.	.	.	.	.	.	.	.	.	.	.	.	.	.	.	.	.	.	.	.	.	.	.	.	.	.	.	.	.	.
.	.	.	8G-X/J	.	4e-/ 4b-	8b-\J	.	.	.	.	.	.	.	.	.	.	.	.	.	.	.	.	.	.	.	.	.	.	.	.	.	.	.	.	.	.	.	.	.	.	.	.	.	.	.	.	.
*	*	*	*Xtremolo	*	*	*	*	*	*	*	*	*	*	*	*	*	*	*	*	*	*	*	*	*	*	*	*	*	*	*	*	*	*	*	*	*	*	*	*	*	*	*	*	*	*	*	*
4G-\	.	.	8G-/L	.	.	8ee-\L	.	4r	.	.	4r	.	.	.	.	.	.	4r	.	4r	.	4r	.	.	.	.	.	.	.	.	.	.	.	.	.	4r	.	4r	.	.	.	.	.	.	.	.	.
.	.	.	8G-/	.	4e-/ 4b-	8ee-\	.	.	.	.	.	.	.	.	.	.	.	.	.	.	.	.	.	.	.	.	.	.	.	.	.	.	.	.	.	.	.	.	.	.	.	.	.	.	.	.	.
4Gn\	.	.	8Gn/	.	.	8dd-X\	p	4Gn\	et	.	4e-\	et	.	4dd-\	per-	.	.	4G-\	.	4B-\	.	4e-\	.	4e-/	.	4ee-\	.	4E-/	.	4e-\	.	(4B-\	.	(4e-\	.	(4b-\	.	(4ee-\	.	.	.	.	.	.	.	4ddd-X\)	.
.	.	.	8G/J	.	8e-/ 8b-	8dd-\J	.	.	.	.	.	.	.	.	.	.	.	.	.	.	.	.	.	.	.	.	.	.	.	.	.	.	.	.	.	.	.	.	.	.	.	.	.	.	.	.	.
!	!	!	!	!	!	!	!	!	!	!	!	!	!	!	!	!	!	!	!	!	!	!	!	!	!	!	!	!	!	!	!	!LO:LB:g=original	!	!	!	!	!	!	!	!	!	!	!	!	!	!	!
=18	=18	=18	=18	=18	=18	=18	=18	=18	=18	=18	=18	=18	=18	=18	=18	=18	=18	=18	=18	=18	=18	=18	=18	=18	=18	=18	=18	=18	=18	=18	=18	=18	=18	=18	=18	=18	=18	=18	=18	=18	=18	=18	=18	=18	=18	=18	=18
4A-\	.	1ryy	8A-/L	.	8a-/L	4cc-\	.	2.A-\	lux	.	2.e-\	lux	.	8.cc-\	-pe-	.	1ryy	2.A-\	.	1c-	.	1e-	.	4e-/	.	4ee-\	.	4E-/	.	4e-\	.	(1c-)	.	1e-	.	1cc-	.	1ee-	.	4ee-\)	.	4ccc-\)	.	4aa-\)	.	4ccc-\	.
.	.	.	8A-/	.	8A-/	.	.	.	.	.	.	.	.	.	.	.	.	.	.	.	.	.	.	.	.	.	.	.	.	.	.	.	.	.	.	.	.	.	.	.	.	.	.	.	.	.	.
.	.	.	.	.	.	.	.	.	.	.	.	.	.	16cc-\	-tu-	.	.	.	.	.	.	.	.	.	.	.	.	.	.	.	.	.	.	.	.	.	.	.	.	.	.	.	.	.	.	.	.
4AA-/	.	.	8c-/	.	8c-/	2ee-\ 2ccc-	.	.	.	.	.	.	.	4cc-\	-a	.	.	.	.	.	.	.	.	4r	.	4r	.	4r	.	4r	.	.	.	.	.	.	.	.	.	4r	.	4r	.	4r	.	4r	.
.	.	.	8e-/J	.	8e-/J	.	.	.	.	.	.	.	.	.	.	.	.	.	.	.	.	.	.	.	.	.	.	.	.	.	.	.	.	.	.	.	.	.	.	.	.	.	.	.	.	.	.
4A-\	.	.	8a-\L	.	8a-/L	.	.	.	.	.	.	.	.	4r	.	.	.	.	.	.	.	.	.	2r	.	4r	.	4r	.	4r	.	.	.	.	.	.	.	.	.	4r	.	4r	.	4r	.	4r	.
.	.	.	8a-\	.	8a-/	.	.	.	.	.	.	.	.	.	.	.	.	.	.	.	.	.	.	.	.	.	.	.	.	.	.	.	.	.	.	.	.	.	.	.	.	.	.	.	.	.	.
4G-X\	.	.	8g-X\	.	8cc-/	4cc-\	.	4G-X\	per-	.	4e-\	per-	.	4cc-\	et	.	.	4G-X\	.	.	.	.	.	.	.	4ee-\	.	4e-\	.	4e-\	.	.	.	.	.	.	.	.	.	4cc-\	.	4aa-\	.	[4aa-\	.	4ccc-\	.
.	.	.	8g-\J	.	8cc-/J	.	.	.	.	.	.	.	.	.	.	.	.	.	.	.	.	.	.	.	.	.	.	.	.	.	.	.	.	.	.	.	.	.	.	.	.	.	.	.	.	.	.
!	!	!	!	!	!	!LO:LB:g=original	!	!	!	!	!	!	!	!LO:LB:g=original	!	!	!	!	!	!	!	!	!	!	!	!	!	!	!	!	!	!	!	!	!	!	!	!	!	!	!	!	!	!	!	!	!
!	!	!	!	!	!	!	!	!	!	!	!	!	!	!	!	!	!	!	!	!	!	!	!	!	!	!	!	!	!	!	!	!	!	!LO:LB:g=original	!	!LO:LB:g=original	!	!	!	!	!	!	!	!	!	!	!
=19	=19	=19	=19	=19	=19	=19	=19	=19	=19	=19	=19	=19	=19	=19	=19	=19	=19	=19	=19	=19	=19	=19	=19	=19	=19	=19	=19	=19	=19	=19	=19	=19	=19	=19	=19	=19	=19	=19	=19	=19	=19	=19	=19	=19	=19	=19	=19
!	!	!	!	!	!	!LO:TX:t=P:problem=mixed beam	!	!	!	!	!	!	!	!	!	!	!	!	!	!	!	!	!	!LO:TX:a:t=1	!	!	!	!	!	!	!	!	!	!	!	!	!	!	!	!	!	!	!	!	!	!	!
4F\	.	1ryy	4f\	.	4a-/	8dd-\L	.	8.F\	-pe-	.	8.d-X\	-pe-	.	2.dd-X\	lux	.	1ryy	2F\	.	2A-\	.	2d-\	.	1r	.	[1dd-X	.	[1d-X	.	1d-X	.	4A-\)	.	4d-\)	.	4a-\)	.	4dd-\)	.	(1dd-	.	(1aa-	.	(1aa-]	.	(2.ddd-\	.
.	.	.	.	.	.	8d-\	.	.	.	.	.	.	.	.	.	.	.	.	.	.	.	.	.	.	.	.	.	.	.	.	.	.	.	.	.	.	.	.	.	.	.	.	.	.	.	.	.
.	.	.	.	.	.	.	.	16F\	-tu-	.	16d-\	-tu-	.	.	.	.	.	.	.	.	.	.	.	.	.	.	.	.	.	.	.	.	.	.	.	.	.	.	.	.	.	.	.	.	.	.	.
4F\	.	.	2f\ 2dd-	.	2aa-\	8f\	.	4F\	-a	.	4d-\	-a	.	.	.	.	.	.	.	.	.	.	.	.	.	.	.	.	.	.	.	4r	.	4r	.	4r	.	4r	.	.	.	.	.	.	.	.	.
.	.	.	.	.	.	8a-\J	.	.	.	.	.	.	.	.	.	.	.	.	.	.	.	.	.	.	.	.	.	.	.	.	.	.	.	.	.	.	.	.	.	.	.	.	.	.	.	.	.
4F\	.	.	.	.	.	8dd-\L	.	4r	.	.	4r	.	.	.	.	.	.	4r	.	4r	.	4r	.	.	.	.	.	.	.	.	.	4r	.	4r	.	4r	.	4r	.	.	.	.	.	.	.	.	.
.	.	.	.	.	.	8dd-\	.	.	.	.	.	.	.	.	.	.	.	.	.	.	.	.	.	.	.	.	.	.	.	.	.	.	.	.	.	.	.	.	.	.	.	.	.	.	.	.	.
4F\	.	.	4f\	.	4a-/	8cc-\	.	4F\	et	.	4d-\	et	.	4cc-\	per-	.	.	4F\	.	4A-\	.	4d-\	.	.	.	.	.	.	.	.	.	(4A-\	.	(4d-\	.	(4a-\	.	4dd-\	.	.	.	.	.	.	.	4ccc-X\)	.
.	.	.	.	.	.	8cc-\J	.	.	.	.	.	.	.	.	.	.	.	.	.	.	.	.	.	.	.	.	.	.	.	.	.	.	.	.	.	.	.	.	.	.	.	.	.	.	.	.	.
!LO:LB:g=original	!	!	!	!	!	!	!	!	!	!	!	!	!	!	!	!	!	!	!	!	!	!	!	!	!	!	!	!	!	!	!	!	!	!	!	!	!	!	!	!	!	!	!	!	!	!	!
=20	=20	=20	=20	=20	=20	=20	=20	=20	=20	=20	=20	=20	=20	=20	=20	=20	=20	=20	=20	=20	=20	=20	=20	=20	=20	=20	=20	=20	=20	=20	=20	=20	=20	=20	=20	=20	=20	=20	=20	=20	=20	=20	=20	=20	=20	=20	=20
!	!	!	!LO:TX:t=P:problem=mixed beam	!	!	!	!	!	!	!	!	!	!	!	!	!	!	!	!	!	!	!	!	!	!	!	!	!	!	!	!	!	!	!	!	!	!	!	!	!	!	!	!	!	!	!	!
4G-\	.	1ryy	8g-\L	.	8g-/L	4b-\	.	2.G-\	lux	.	2.d-\	lux	.	8.b-\	-pe-	.	1ryy	2.G-\	.	1B-	.	1d-	.	2r	.	4dd-\]	.	4d-\]	.	4d\	.	1B-	.	1d-	.	1b-	.	(1dd-	.	4dd-\)	.	4bb-\)	.	4gg-\)	.	4bb-\	.
.	.	.	8G-\	.	8d-/	.	.	.	.	.	.	.	.	.	.	.	.	.	.	.	.	.	.	.	.	.	.	.	.	.	.	.	.	.	.	.	.	.	.	.	.	.	.	.	.	.	.
.	.	.	.	.	.	.	.	.	.	.	.	.	.	16b-\	-tu-	.	.	.	.	.	.	.	.	.	.	.	.	.	.	.	.	.	.	.	.	.	.	.	.	.	.	.	.	.	.	.	.
4GG-/	.	.	8B-\	.	8B-/	2dd-\ 2bb-	.	.	.	.	.	.	.	4b-\	-a	.	.	.	.	.	.	.	.	.	.	4r	.	4r	.	4r	.	.	.	.	.	.	.	.	.	4r	.	4r	.	4r	.	4r	.
.	.	.	8d-\J	.	8d-/J	.	.	.	.	.	.	.	.	.	.	.	.	.	.	.	.	.	.	.	.	.	.	.	.	.	.	.	.	.	.	.	.	.	.	.	.	.	.	.	.	.	.
4G-\	.	.	8g-\L	.	8g-/L	.	.	.	.	.	.	.	.	4r	.	.	.	.	.	.	.	.	.	4r	.	4r	.	4r	.	4r	.	.	.	.	.	.	.	.	.	4r	.	4r	.	4r	.	4r	.
.	.	.	8g-\	.	8g-/	.	.	.	.	.	.	.	.	.	.	.	.	.	.	.	.	.	.	.	.	.	.	.	.	.	.	.	.	.	.	.	.	.	.	.	.	.	.	.	.	.	.
!	!	!	!	!	!	!	!	!	!	!	!LO:TX:t=Volti	!	!	!	!	!	!	!	!	!	!	!	!	!	!	!	!	!	!	!	!	!	!	!	!	!	!	!	!	!	!	!	!	!	!	!	!
4G-\	.	.	8f\	.	8b-/	4b-\	.	4F\	per-	.	4d-\	per-	.	4b-\	et	.	.	4F\	.	.	.	.	.	4b-/	f	4b-/	.	4B-/	.	4B-/	.	.	.	.	.	.	.	.	.	4b-\	.	4gg-\	.	4gg-\	.	4bb-\	.
.	.	.	8f\J	.	8b-/J	.	.	.	.	.	.	.	.	.	.	.	.	.	.	.	.	.	.	.	.	.	.	.	.	.	.	.	.	.	.	.	.	.	.	.	.	.	.	.	.	.	.
!	!	!	!	!	!	!	!	!	!	!	!LO:LB:g=original	!	!	!	!	!	!	!	!	!	!	!	!	!	!	!	!	!	!	!	!	!	!	!	!	!	!	!	!	!	!	!	!	!	!	!LO:LB:g=original	!
!	!	!	!	!	!	!	!	!	!	!	!	!	!	!	!	!	!	!	!	!	!	!	!	!	!	!	!	!	!	!	!	!	!	!	!	!	!	!LO:LB:g=original	!	!LO:LB:g=original	!	!	!	!	!	!	!
!	!	!	!	!	!	!	!	!	!	!	!	!	!	!	!	!	!	!	!	!LO:LB:g=original	!	!	!	!	!	!	!	!	!	!	!	!	!	!	!	!	!	!	!	!	!	!	!	!	!	!	!
=21	=21	=21	=21	=21	=21	=21	=21	=21	=21	=21	=21	=21	=21	=21	=21	=21	=21	=21	=21	=21	=21	=21	=21	=21	=21	=21	=21	=21	=21	=21	=21	=21	=21	=21	=21	=21	=21	=21	=21	=21	=21	=21	=21	=21	=21	=21	=21
!	!	!	!	!	!	!LO:TX:t=P:problem=mixed beam	!	!	!	!	!	!	!	!	!	!	!	!	!	!	!	!	!	!	!	!	!	!	!	!	!	!	!	!	!	!	!	!	!	!	!	!	!	!	!	!	!
4E-\	.	1ryy	4e-\	.	4g-/	8cc-\L	.	8.E-\	-pe-	.	8.c-\	-pe-	.	2.cc-\	lux	.	1ryy	2E-\	.	2G-/	.	2c-\	.	2e-/	.	2ee-\	.	2E-/	.	2e-\	.	4G-\)	.	4c-\)	.	4g-/)	.	4cc-\)	.	1cc-	.	(1gg-	.	(1gg-	.	(2.ccc-\	.
.	.	.	.	.	.	8c-\	.	.	.	.	.	.	.	.	.	.	.	.	.	.	.	.	.	.	.	.	.	.	.	.	.	.	.	.	.	.	.	.	.	.	.	.	.	.	.	.	.
.	.	.	.	.	.	.	.	16E-\	-tu-	.	16c-\	-tu-	.	.	.	.	.	.	.	.	.	.	.	.	.	.	.	.	.	.	.	.	.	.	.	.	.	.	.	.	.	.	.	.	.	.	.
4E-\	.	.	2e-\ 2cc-	.	2gg-\	8e-\	.	4E-\	-a	.	4c-\	-a	.	.	.	.	.	.	.	.	.	.	.	.	.	.	.	.	.	.	.	4r	.	4r	.	4r	.	4r	.	.	.	.	.	.	.	.	.
.	.	.	.	.	.	8g-\J	.	.	.	.	.	.	.	.	.	.	.	.	.	.	.	.	.	.	.	.	.	.	.	.	.	.	.	.	.	.	.	.	.	.	.	.	.	.	.	.	.
4E-\	.	.	.	.	.	8cc-\L	.	4r	.	.	4r	.	.	.	.	.	.	4r	.	4r	.	4r	.	2r	.	2r	.	2r	.	2r	.	4r	.	4r	.	4r	.	4r	.	.	.	.	.	.	.	.	.
.	.	.	.	.	.	8cc-\	.	.	.	.	.	.	.	.	.	.	.	.	.	.	.	.	.	.	.	.	.	.	.	.	.	.	.	.	.	.	.	.	.	.	.	.	.	.	.	.	.
4E-\	.	.	4e-\	.	4g-/	8b-\	.	4E-\	et	.	4c-\	et	.	4b-\	per-	.	.	4E-\	.	4G-/	.	4e-\	.	.	.	.	.	.	.	.	.	(4G-\	.	[4c-\	.	(4g-/	.	[4cc-\	.	.	.	.	.	.	.	4bb-\)	.
.	.	.	.	.	.	8b-\J	.	.	.	.	.	.	.	.	.	.	.	.	.	.	.	.	.	.	.	.	.	.	.	.	.	.	.	.	.	.	.	.	.	.	.	.	.	.	.	.	.
!	!	!	!	!	!LO:LB:g=original	!	!	!LO:LB:g=original	!	!	!	!	!	!	!	!	!	!	!	!	!	!	!	!	!	!	!	!	!	!	!	!	!	!	!	!	!	!	!	!	!	!	!	!	!	!	!
!	!	!	!	!	!	!	!	!	!	!	!	!	!	!	!	!	!	!LO:LB:g=original	!	!	!	!	!	!	!	!	!	!LO:LB:g=original	!	!LO:LB:g=original	!	!	!	!	!	!	!	!	!	!	!	!	!	!	!	!	!
=22	=22	=22	=22	=22	=22	=22	=22	=22	=22	=22	=22	=22	=22	=22	=22	=22	=22	=22	=22	=22	=22	=22	=22	=22	=22	=22	=22	=22	=22	=22	=22	=22	=22	=22	=22	=22	=22	=22	=22	=22	=22	=22	=22	=22	=22	=22	=22
!	!	!	!LO:TX:t=P:problem=mixed beam	!	!	!	!	!	!	!	!	!	!	!	!	!	!	!	!	!	!	!	!	!	!	!	!	!	!	!	!	!	!	!	!	!	!	!	!	!	!	!	!	!	!	!	!
4F\	.	1ryy	8f\L	.	8f/L	4a-/	.	2.F\	lux	.	2.c-\	lux	.	8.a-\	-pe-	.	1ryy	2.F\	.	1A-	.	1c-	.	2r	.	2r	.	2r	.	2r	.	1A-)	.	1c-]	.	1a-)	.	(1cc-]	.	4cc-\	.	4aa-\)	.	4ff\)	.	4aa-\	.
.	.	.	8F\	.	8c-/	.	.	.	.	.	.	.	.	.	.	.	.	.	.	.	.	.	.	.	.	.	.	.	.	.	.	.	.	.	.	.	.	.	.	.	.	.	.	.	.	.	.
.	.	.	.	.	.	.	.	.	.	.	.	.	.	16a-\	-tu-	.	.	.	.	.	.	.	.	.	.	.	.	.	.	.	.	.	.	.	.	.	.	.	.	.	.	.	.	.	.	.	.
4FF/	.	.	8B-\	.	8A-/	2cc-\ 2aa-	.	.	.	.	.	.	.	4a-\	-a	.	.	.	.	.	.	.	.	.	.	.	.	.	.	.	.	.	.	.	.	.	.	.	.	4r	.	4r	.	4r	.	4r	.
.	.	.	8d-\J	.	8c-/J	.	.	.	.	.	.	.	.	.	.	.	.	.	.	.	.	.	.	.	.	.	.	.	.	.	.	.	.	.	.	.	.	.	.	.	.	.	.	.	.	.	.
4F\	.	.	8f\L	.	8f/L	.	.	.	.	.	.	.	.	4r	.	.	.	.	.	.	.	.	.	4r	.	4r	.	4r	.	4r	.	.	.	.	.	.	.	.	.	4r	.	4r	.	4r	.	4r	.
.	.	.	8f\	.	8f/	.	.	.	.	.	.	.	.	.	.	.	.	.	.	.	.	.	.	.	.	.	.	.	.	.	.	.	.	.	.	.	.	.	.	.	.	.	.	.	.	.	.
4E-\	.	.	8f\	.	8a-/	4a-/	.	4E-\	per-	.	4c-\	per-	.	4a-\	et	.	.	4E-\	.	.	.	.	.	4ff\	.	4ff\	.	4f\	fz	4f\	f	.	.	.	.	.	.	.	.	4ff\	.	4aa-\	.	[4ff\	.	4aa-\	.
.	.	.	8f\J	.	8a-/J	.	.	.	.	.	.	.	.	.	.	.	.	.	.	.	.	.	.	.	.	.	.	.	.	.	.	.	.	.	.	.	.	.	.	.	.	.	.	.	.	.	.
!	!	!	!	!	!	!	!	!	!	!	!	!	!	!	!	!	!	!	!	!	!	!	!	!	!	!	!	!	!	!	!	!	!	!	!	!	!	!	!	!	!	!LO:LB:g=original	!	!LO:LB:g=original	!	!	!
=23	=23	=23	=23	=23	=23	=23	=23	=23	=23	=23	=23	=23	=23	=23	=23	=23	=23	=23	=23	=23	=23	=23	=23	=23	=23	=23	=23	=23	=23	=23	=23	=23	=23	=23	=23	=23	=23	=23	=23	=23	=23	=23	=23	=23	=23	=23	=23
!	!	!	!	!	!	!LO:TX:t=P:problem=mixed beam	!	!	!	!	!	!	!	!	!	!	!	!	!	!	!	!	!	!	!	!	!	!	!	!	!	!	!	!	!	!	!	!	!	!	!	!	!	!	!	!	!
4Dn\	.	1ryy	8dn\L	.	4f/	8b-\L	.	8.Dn\	-pe-	.	8.B-\	-pe-	.	2.b-\	lux	.	1ryy	4Dn\	.	4F/	.	4B-/	.	2.b-/	.	2.b-/	.	2.B-/	.	2.f\	.	1F	.	(2.B-\	.	1f	.	2.b-\	.	(1ff	.	(2.bb-\	.	(1ff]	.	(2.bb-\	.
.	.	.	8B-\	.	.	8B-\	.	.	.	.	.	.	.	.	.	.	.	.	.	.	.	.	.	.	.	.	.	.	.	.	.	.	.	.	.	.	.	.	.	.	.	.	.	.	.	.	.
.	.	.	.	.	.	.	.	16D\	-tu-	.	16B-\	-tu-	.	.	.	.	.	.	.	.	.	.	.	.	.	.	.	.	.	.	.	.	.	.	.	.	.	.	.	.	.	.	.	.	.	.	.
4BB-/	.	.	8B-\	.	2ff\	8dn\	.	4D\	-a	.	4B-\	-a	.	.	.	.	.	4BB-/	.	4dn\	.	2b-\	.	.	.	.	.	.	.	.	.	.	.	.	.	.	.	.	.	.	.	.	.	.	.	.	.
.	.	.	8B-\J	.	.	8f\J	.	.	.	.	.	.	.	.	.	.	.	.	.	.	.	.	.	.	.	.	.	.	.	.	.	.	.	.	.	.	.	.	.	.	.	.	.	.	.	.	.
*	*	*	*tremolo	*	*	*	*	*	*	*	*	*	*	*	*	*	*	*	*	*	*	*	*	*	*	*	*	*	*	*	*	*	*	*	*	*	*	*	*	*	*	*	*	*	*	*	*
4Cn/	.	.	8B-/L	.	.	8b-\L	.	4r	.	.	4r	.	.	.	.	.	.	4Cn\	.	4e-\	.	.	.	.	.	.	.	.	.	.	.	.	.	.	.	.	.	.	.	.	.	.	.	.	.	.	.
.	.	.	8B-/	.	.	8b-\	.	.	.	.	.	.	.	.	.	.	.	.	.	.	.	.	.	.	.	.	.	.	.	.	.	.	.	.	.	.	.	.	.	.	.	.	.	.	.	.	.
4D/	.	.	8B-/	.	4f/	8a-\	.	4D\	per-	.	4B-\	per-	.	4a-\	per-	.	.	4D\	.	4f\	.	4a-\	.	4B-/	.	4b-/	.	4B-/	.	4f\	.	.	.	4A-\)	.	.	.	4a-\)	.	.	.	4aa-\)	.	.	.	4aa-\)	.
.	.	.	8B-/J	.	.	8a-\J	.	.	.	.	.	.	.	.	.	.	.	.	.	.	.	.	.	.	.	.	.	.	.	.	.	.	.	.	.	.	.	.	.	.	.	.	.	.	.	.	.
!	!	!	!	!	!	!LO:LB:g=original	!	!	!	!	!	!	!	!	!	!	!	!	!	!	!	!	!	!	!	!	!	!	!	!	!	!	!	!	!	!	!	!	!	!	!	!	!	!	!	!	!
!	!	!	!	!	!	!	!	!	!	!	!	!	!	!	!	!	!	!	!	!	!	!	!	!LO:LB:g=original	!	!LO:LB:g=original	!	!	!	!	!	!	!	!	!	!	!	!	!	!	!	!	!	!	!	!	!
=24	=24	=24	=24	=24	=24	=24	=24	=24	=24	=24	=24	=24	=24	=24	=24	=24	=24	=24	=24	=24	=24	=24	=24	=24	=24	=24	=24	=24	=24	=24	=24	=24	=24	=24	=24	=24	=24	=24	=24	=24	=24	=24	=24	=24	=24	=24	=24
*	*	*	*	*	*tremolo	*	*	*	*	*	*	*	*	*	*	*	*	*	*	*	*	*	*	*	*	*	*	*	*	*	*	*	*	*	*	*	*	*	*	*	*	*	*	*	*	*	*
*	*	*	*	*	*	*tremolo	*	*	*	*	*	*	*	*	*	*	*	*	*	*	*	*	*	*	*	*	*	*	*	*	*	*	*	*	*	*	*	*	*	*	*	*	*	*	*	*	*
!	!	!	!	!	!	!	!	!LO:TX:t=P:problem=takt niepełny pierwsza miara 8 z kropką zamiast 4	!	!LO:DY:a	!	!	!	!	!	!	!	!	!	!	!	!	!	!	!	!	!	!	!	!	!	!	!	!	!	!	!	!	!	!	!	!	!	!	!	!	!
4E-\	fz	1ryy	8B-L	.	8e-/L	8g-/L	.	4.E-\	pe-	>	4.B-\	pe-	.	4.g-\	-pe-	.	1ryy	2E-^\	sf	2B-^\	sfz	2g-^\	sfz	2e-^/	.	2b-/	.	2E-^/	.	2e-\	.	(2E-\	.	(2G-/	.	(2e-/	.	(2g-^/	.	2ee-\)	.	2gg-^\	.	1ee-)	.	(1gg-^	.
.	.	.	8B-	.	8e-/	8g-/	.	.	.	.	.	.	.	.	.	.	.	.	.	.	.	.	.	.	.	.	.	.	.	.	.	.	.	.	.	.	.	.	.	.	.	.	.	.	.	.	.
4E-\	p	.	8B-	.	8e-/	8g-/	.	.	.	.	.	.	.	.	.	.	.	.	.	.	.	.	.	.	.	.	.	.	.	.	.	.	.	.	.	.	.	.	.	.	.	.	.	.	.	.	.
.	.	.	8B-	.	8e-/J	8g-/J	.	8E-\	-tu-	]	8B-\	-tu-	.	8g-\	-tu-	.	.	.	.	.	.	.	.	.	.	.	.	.	.	.	.	.	.	.	.	.	.	.	.	.	.	.	.	.	.	.	.
!	!	!	!	!	!	!	!	!	!	!LO:DY:a	!	!	!	!	!	!	!	!	!	!	!	!	!	!	!	!	!	!	!	!	!	!	!	!	!	!	!	!	!	!	!	!	!	!	!	!	!
*	*	*	*	*	*Xtremolo	*Xtremolo	*	*	*	*	*	*	*	*	*	*	*	*	*	*	*	*	*	*	*	*	*	*	*	*	*	*	*	*	*	*	*	*	*	*	*	*	*	*	*	*	*
4E-\	f	.	8B-	.	8g-/L	8ee-\L	.	2E-\	-a	>	2B-\	-a	.	2g-\	-a	.	.	2r	.	2r	.	2r	.	2r	.	2r	.	2r	.	2r	.	2G-\)	.	2e-\)	.	2g-/)	.	2ee-\)	.	2r	.	2r	.	.	.	.	.
.	.	.	8B-	.	8e-/	8g-\	.	.	.	.	.	.	.	.	.	.	.	.	.	.	.	.	.	.	.	.	.	.	.	.	.	.	.	.	.	.	.	.	.	.	.	.	.	.	.	.	.
4E-\	p	.	8B-	.	8e-/	8g-\	.	.	.	.	.	.	.	.	.	.	.	.	.	.	.	.	.	.	.	.	.	.	.	.	.	.	.	.	.	.	.	.	.	.	.	.	.	.	.	.	.
.	.	.	8B-J	.	8e-/J	8g-\J	.	.	.	]	.	.	.	.	.	.	.	.	.	.	.	.	.	.	.	.	.	.	.	.	.	.	.	.	.	.	.	.	.	.	.	.	.	.	.	.	.
!LO:LB:g=original	!	!	!LO:LB:g=original	!	!	!	!	!	!	!	!	!	!	!LO:LB:g=original	!	!	!	!	!	!	!	!	!	!	!	!	!	!	!	!	!	!	!	!	!	!	!	!	!	!	!	!	!	!	!	!	!
!	!	!	!	!	!	!	!	!	!	!	!	!	!	!	!	!	!	!	!	!	!	!	!	!	!	!	!	!	!	!	!	!LO:LB:g=original	!	!	!	!	!	!	!	!	!	!	!	!	!	!	!
!	!	!	!	!	!	!	!	!	!	!	!	!	!	!	!	!	!	!	!	!	!	!LO:LB:g=original	!	!	!	!	!	!	!	!	!	!	!	!	!	!	!	!	!	!	!	!	!	!	!	!	!
=25	=25	=25	=25	=25	=25	=25	=25	=25	=25	=25	=25	=25	=25	=25	=25	=25	=25	=25	=25	=25	=25	=25	=25	=25	=25	=25	=25	=25	=25	=25	=25	=25	=25	=25	=25	=25	=25	=25	=25	=25	=25	=25	=25	=25	=25	=25	=25
*	*	*	*	*	*tremolo	*tremolo	*	*	*	*	*	*	*	*	*	*	*	*	*	*	*	*	*	*	*	*	*	*	*	*	*	*	*	*	*	*	*	*	*	*	*	*	*	*	*	*	*
4C-/	f	1ryy	8c-L	.	8e-/L	8g-/L	.	4.C-X/	lu-	.	4.c-\	lu-	.	4.g-\	lu-	.	1ryy	2c-X^\	sf	2e-^\	sf	2g-^\	sf	2e-^/	.	2e-/	.	2E-/	.	2e-\	.	(2E-\	.	(2G-/	.	(2e-/	.	(2g-^/	.	2ee-\	.	2gg-^\	.	(1gg-	.	1eee-^)	.
.	.	.	8c-	.	8e-/	8g-/	.	.	.	.	.	.	.	.	.	.	.	.	.	.	.	.	.	.	.	.	.	.	.	.	.	.	.	.	.	.	.	.	.	.	.	.	.	.	.	.	.
4C-/	p	.	8c-	.	8e-/	8g-/	.	.	.	.	.	.	.	.	.	.	.	.	.	.	.	.	.	.	.	.	.	.	.	.	.	.	.	.	.	.	.	.	.	.	.	.	.	.	.	.	.
.	.	.	8c-	.	8e-/J	8g-/J	.	8C-/	-ce-	.	8c-\	-ce-	.	8g-\	-ce-	.	.	.	.	.	.	.	.	.	.	.	.	.	.	.	.	.	.	.	.	.	.	.	.	.	.	.	.	.	.	.	.
!	!	!	!	!	!	!	!	!	!	!	!LO:LB:g=original	!	!	!	!	!	!	!	!	!	!	!	!	!	!	!	!	!	!	!	!	!	!	!	!	!	!	!	!	!	!	!	!	!	!	!	!
*	*	*	*	*	*Xtremolo	*Xtremolo	*	*	*	*	*	*	*	*	*	*	*	*	*	*	*	*	*	*	*	*	*	*	*	*	*	*	*	*	*	*	*	*	*	*	*	*	*	*	*	*	*
4C-/	f	.	8c-	.	8g-/L	8ee-\L	.	2C-/	-at	.	2c-^\	-at	.	2g-\	-at	.	.	2r	.	2r	.	2r	.	2r	.	2r	.	2r	.	2r	.	2G-\)	.	2e-\)	.	2g-/)	.	2ee-\)	.	2r	.	2r	.	.	.	.	.
.	.	.	8c-	.	8e-/	8g-\	.	.	.	.	.	.	.	.	.	.	.	.	.	.	.	.	.	.	.	.	.	.	.	.	.	.	.	.	.	.	.	.	.	.	.	.	.	.	.	.	.
4C-/	p	.	8c-	.	8e-/	8g-\	.	.	.	.	.	.	.	.	.	.	.	.	.	.	.	.	.	.	.	.	.	.	.	.	.	.	.	.	.	.	.	.	.	.	.	.	.	.	.	.	.
.	.	.	8c-J	.	8e-/J	8g-\J	.	.	.	.	.	.	.	.	.	.	.	.	.	.	.	.	.	.	.	.	.	.	.	.	.	.	.	.	.	.	.	.	.	.	.	.	.	.	.	.	.
!	!	!	!	!	!	!	!	!	!	!	!	!	!	!	!	!	!	!	!	!	!	!	!	!	!	!	!	!	!	!	!	!	!	!LO:LB:g=original	!	!LO:LB:g=original	!	!	!	!	!	!	!	!	!	!	!
=26	=26	=26	=26	=26	=26	=26	=26	=26	=26	=26	=26	=26	=26	=26	=26	=26	=26	=26	=26	=26	=26	=26	=26	=26	=26	=26	=26	=26	=26	=26	=26	=26	=26	=26	=26	=26	=26	=26	=26	=26	=26	=26	=26	=26	=26	=26	=26
!	!	!	!	!	!	!	!	!	!	!	!	!	!LO:DY:b	!	!	!	!	!	!	!	!	!	!	!	!	!	!	!	!	!	!	!	!	!	!	!	!	!	!	!	!	!	!	!	!	!	!
4AA-/	f	1ryy	8c-\L	.	8f/L	8a-\L	.	4AA-/	e-	.	4c-\	e-	f	4a-\	e-	.	1ryy	2A-\	.	2c-^\	sfz	2f^\	sf	2ff^\	.	2ff\	.	4r	.	4r	.	(2A-\	>	2f\	.	(2a-\	>	(2ff\	>	4r	.	4r	.	2aa-\)	.	(2fff\	.
.	.	.	8c-\	.	8a-/	8ff\	.	.	.	.	.	.	.	.	.	.	.	.	.	.	.	.	.	.	.	.	.	.	.	.	.	.	.	.	.	.	.	.	.	.	.	.	.	.	.	.	.
!	!	!	!	!	!	!	!	!	!	!	!	!	!	!	!	!	!	!	!	!	!	!	!	!	!	!	!	!LO:TX:a:i:t=ſolo	!	!	!	!	!	!	!	!	!	!	!	!	!	!	!	!	!	!	!
4A-\	.	.	8c-\	.	8a-/	8ff\	.	4A-\	-i	.	4c-\	-i	.	4a-\	-i	.	.	.	.	.	.	.	.	.	.	.	.	(4f\	>	(4f\	>	.	.	.	.	.	.	.	.	(4ff\	>	(4aa-\	>	.	.	.	.
.	.	.	8c-\J	.	8a-/J	8ff\J	.	.	.	.	.	.	.	.	.	.	.	.	.	.	.	.	.	.	.	.	.	.	.	.	.	.	.	.	.	.	.	.	.	.	.	.	.	.	.	.	.
4B-\	>	.	8B-/L	.	8g-/L	8ee-\L	.	4B-\	Do-	>	4B-\	Do-	>	4g-\	Do-	.	.	2r	.	2r	.	2r	.	2r	.	2r	.	4e-\	.	4g-X\	.	4G-\	.	4e-\	.	4g-/	.	4ee-\	.	4ee-\	.	4gg-\	.	4gg-\	.	4eee-\	<
.	.	.	8B-/	.	8g-/	8ee-\	.	.	.	.	.	.	.	.	.	.	.	.	.	.	.	.	.	.	.	.	.	.	.	.	.	.	.	.	.	.	.	.	.	.	.	.	.	.	.	.	.
4BB-/	]	.	8B-/	.	8f/	8ddn\	.	4BB-/	-mi-	.	4A-\	-mi-	.	4f\	-mi-	.	.	.	.	.	.	.	.	.	.	.	.	4B-\)	]	4f\)	]	4F\)	]	4dn\	.	4f/)	]	4dd\)	]	4ddn\)	]	4ff\)	]	4ff\	.	4dddn\)	[
.	.	.	8B-/J	.	8f/J	8dd\J	.	.	.	]	.	.	]	.	.	.	.	.	.	.	.	.	.	.	.	.	.	.	.	.	.	.	.	.	.	.	.	.	.	.	.	.	.	.	.	.	.
!	!	!	!	!	!LO:LB:g=original	!	!	!LO:LB:g=original	!	!	!	!	!	!	!	!	!	!	!	!	!	!	!	!	!	!	!	!	!	!	!	!	!	!	!	!	!	!	!	!	!	!	!	!	!	!LO:LB:g=original	!
!	!	!	!	!	!	!	!	!	!	!	!	!	!	!	!	!	!	!	!	!	!	!	!	!	!	!	!	!	!	!	!	!	!	!	!	!	!	!LO:LB:g=original	!	!	!	!	!	!	!	!	!
=27	=27	=27	=27	=27	=27	=27	=27	=27	=27	=27	=27	=27	=27	=27	=27	=27	=27	=27	=27	=27	=27	=27	=27	=27	=27	=27	=27	=27	=27	=27	=27	=27	=27	=27	=27	=27	=27	=27	=27	=27	=27	=27	=27	=27	=27	=27	=27
!	!	!	!	!	!	!LO:TX:t=P:problem=mixed beam	!	!	!	!	!	!	!	!	!	!	!	!LO:TX:a:t=1	!	!LO:TX:a:t=1	!	!LO:TX:a:t=1	!	!	!	!	!	!	!	!	!	!	!	!	!	!	!	!	!	!	!	!	!	!	!	!	!
4E-\	.	1ryy	4E-/	.	8e-/	8ee-\L	.	4E-\	-ne	.	4G-/	-ne	.	4e-/	-ne	.	1ryy	1r	.	1r	.	1r	.	1r	.	1r	.	4E-/	.	4e-\	.	4G-\	.	4e-\	.	4g-/	.	4ee-\	.	4ee-\	.	4gg-\	.	4gg-\	.	4eee-\	.
.	.	.	.	.	8e-/L	8e-\	.	.	.	.	.	.	.	.	.	.	.	.	.	.	.	.	.	.	.	.	.	.	.	.	.	.	.	.	.	.	.	.	.	.	.	.	.	.	.	.	.
4r	.	.	4r	.	8g-/	8g-\	.	4r	.	.	4r	.	.	4r	.	.	.	.	.	.	.	.	.	.	.	.	.	4r	.	4r	.	4r	.	4r	.	4r	.	4r	.	4r	.	4r	.	4r	.	4r	.
.	.	.	.	.	8b-/J	8b-\J	.	.	.	.	.	.	.	.	.	.	.	.	.	.	.	.	.	.	.	.	.	.	.	.	.	.	.	.	.	.	.	.	.	.	.	.	.	.	.	.	.
2r	.	.	2r	.	8ee-\L	8ee-\L	.	2r	.	.	2r	.	.	2r	.	.	.	.	.	.	.	.	.	.	.	.	.	2r	.	2r	.	2r	.	2r	.	2r	.	2r	.	2r	.	2r	.	2r	.	2r	.
.	.	.	.	.	8gg-\	8gg-\	.	.	.	.	.	.	.	.	.	.	.	.	.	.	.	.	.	.	.	.	.	.	.	.	.	.	.	.	.	.	.	.	.	.	.	.	.	.	.	.	.
.	.	.	.	.	8bb-\	8bb-\	.	.	.	.	.	.	.	.	.	.	.	.	.	.	.	.	.	.	.	.	.	.	.	.	.	.	.	.	.	.	.	.	.	.	.	.	.	.	.	.	.
.	.	.	.	.	8bb-\J	8bb-\J	.	.	.	.	.	.	.	.	.	.	.	.	.	.	.	.	.	.	.	.	.	.	.	.	.	.	.	.	.	.	.	.	.	.	.	.	.	.	.	.	.
!	!	!	!	!	!	!	!	!	!	!	!	!	!	!	!	!	!	!	!	!	!	!	!	!	!	!	!	!	!	!	!	!	!	!	!	!	!	!	!	!	!	!	!	!LO:LB:g=original	!	!	!
!	!	!	!	!	!	!	!	!	!	!	!	!	!	!	!	!	!	!	!	!	!	!	!	!	!	!	!	!	!	!	!	!	!	!	!	!	!	!	!	!LO:LB:g=original	!	!	!	!	!	!	!
!	!	!	!	!	!	!	!	!	!	!	!	!	!	!	!	!	!	!LO:LB:g=original	!	!LO:LB:g=original	!	!	!	!	!	!	!	!	!	!	!	!	!	!	!	!	!	!	!	!	!	!	!	!	!	!	!
=28	=28	=28	=28	=28	=28	=28	=28	=28	=28	=28	=28	=28	=28	=28	=28	=28	=28	=28	=28	=28	=28	=28	=28	=28	=28	=28	=28	=28	=28	=28	=28	=28	=28	=28	=28	=28	=28	=28	=28	=28	=28	=28	=28	=28	=28	=28	=28
*	*	*	*	*	*	*	*	*	*	*	*	*	*	*	*	*	*	*	*	*	*	*	*	*	*	*	*	*	*	*	*	*	*	*clefF4	*	*	*	*	*	*	*	*	*	*	*	*	*
!	!	!	!	!	!	!	!	!	!	!	!	!	!	!	!	!	!	!	!	!	!	!	!	!	!LO:DY:a	!	!	!	!	!	!	!	!LO:DY:a	!	!	!	!	!	!	!	!	!	!	!	!	!	!
2.Dn\	sfz	1ryy	2.B-/ 2.f	.	8r	8r	.	4.Dn\	lu-	f	4.B-\	lu-	.	4.ff\	lu-	.	1ryy	2.Dn\	sfz	2B-\	sfz	2.f\	sf	2.B-/	sf	2.b-/	sfz	2.B-/	sfz	2.f\	.	2.DDn/	sfz	2.Dn\	.	2.b-\	sfz	2.ff\	sfz	(2.ff\	>	2.aa-\	fz >	2.aa-\	.	2.fff\	sf
.	.	.	.	.	8aa-\L	8aa-\L	.	.	.	.	.	.	.	.	.	.	.	.	.	.	.	.	.	.	.	.	.	.	.	.	.	.	.	.	.	.	.	.	.	.	.	.	.	.	.	.	.
.	.	.	.	.	8ff\	8ff\	.	.	.	.	.	.	.	.	.	.	.	.	.	.	.	.	.	.	.	.	.	.	.	.	.	.	.	.	.	.	.	.	.	.	.	.	.	.	.	.	.
.	.	.	.	.	8ddn\J	8ddn\J	.	8D\	-ce-	.	8B-\	-ce-	.	8ff\	-ce-	.	.	.	.	.	.	.	.	.	.	.	.	.	.	.	.	.	.	.	.	.	.	.	.	.	.	.	.	.	.	.	.
.	.	.	.	.	8b-/L	8b-/L	.	2D\	-at	.	2B-\	-at	.	2a-\	-at	.	.	.	.	2A-\	fz	.	.	.	.	.	.	.	.	.	.	.	.	.	.	.	.	.	.	.	.	.	.	.	.	.	.
.	.	.	.	.	8a-/	8a-/	.	.	.	.	.	.	.	.	.	.	.	.	.	.	.	.	.	.	.	.	.	.	.	.	.	.	.	.	.	.	.	.	.	.	.	.	.	.	.	.	.
(4D\	>	.	4Dn/ 4F	.	8B-/	8B-/	.	.	.	.	.	.	.	.	.	.	.	4D\	fz	.	.	4f\	fz	4B-/	.	4b-/	.	4B-/	f	4f\	sf	(4Dn\	sfz	(4F\	f	4b-\	.	(4ff\	.	4ff\)	]	(4aa-\	]	4aa-\	.	4fff\	fz
.	.	.	.	.	8a-/J	8a-/J	.	.	.	.	.	.	.	.	.	.	.	.	.	.	.	.	.	.	.	.	.	.	.	.	.	.	.	.	.	.	.	.	.	.	.	.	.	.	.	.	.
!	!	!	!	!	!	!LO:LB:g=original	!	!	!	!	!	!	!	!	!	!	!	!	!	!	!	!	!	!	!	!	!	!	!	!	!	!	!	!	!	!	!	!	!	!	!	!	!	!	!	!	!
!	!	!	!	!	!	!	!	!	!	!	!	!	!	!	!	!	!	!	!	!	!	!	!	!	!	!	!	!LO:LB:g=original	!	!	!	!	!	!	!	!	!	!	!	!	!	!	!	!	!	!	!
=29	=29	=29	=29	=29	=29	=29	=29	=29	=29	=29	=29	=29	=29	=29	=29	=29	=29	=29	=29	=29	=29	=29	=29	=29	=29	=29	=29	=29	=29	=29	=29	=29	=29	=29	=29	=29	=29	=29	=29	=29	=29	=29	=29	=29	=29	=29	=29
4E-\	.	1ryy	4E-/ 4G-	.	8g-/L	8g-/L	.	(4E-\	e-	.	2.B-\	e-	.	4g-\	e-	.	1ryy	(4E-\	>	(4G-/	>	(4B-/	>	4e-/	.	4b-/	.	4E-/	.	4e-\	.	4E-\	>	4G-\	>	(4b-\	.	4gg-\)	.	(4b-\	>	4gg-\)	.	4gg-\	.	4eee-\	.
.	.	.	.	.	8b-/	8b-/	.	.	.	.	.	.	.	.	.	.	.	.	.	.	.	.	.	.	.	.	.	.	.	.	.	.	.	.	.	.	.	.	.	.	.	.	.	.	.	.	.
4F\	]	.	4F/ 4A-	.	8dn/	8dn/	.	4F\)	.	>	.	.	.	2b-\	.	.	.	4F\	.	4A-/	.	4dn\	.	4r	.	4r	.	4r	.	4r	.	4F\	.	4A-\	.	2b-\	.	4dd\	>	4ddn\	.	(2bb-\	>	4r	.	4r	.
.	.	.	.	.	8f/J	8f/J	.	.	.	.	.	.	.	.	.	.	.	.	.	.	.	.	.	.	.	.	.	.	.	.	.	.	.	.	.	.	.	.	.	.	.	.	.	.	.	.	.
!	!	!	!	!	!LO:TX:t=P:problem=mixed beam	!LO:TX:t=P:problem=mixed beam	!	!	!	!	!	!	!	!	!	!	!	!	!	!	!	!	!	!	!	!	!	!	!	!	!	!	!	!	!	!	!	!	!	!	!	!	!	!	!	!	!
4G-\	.	.	4G-/ 4B-	.	8e-\L	8e-\L	.	(4G-\	.	.	.	.	.	.	.	.	.	4G-\	.	4B-\	.	4e-\	.	2r	.	2r	.	4r	.	4r	.	4G-\	]	4B-\	.	.	.	4ee-\	.	4ee-\	.	.	.	4r	.	4r	.
.	.	.	.	.	8ee-\	8ee-\	.	.	.	.	.	.	.	.	.	.	.	.	.	.	.	.	.	.	.	.	.	.	.	.	.	.	.	.	.	.	.	.	.	.	.	.	.	.	.	.	.
4A-\)	.	.	4A-/ 4c-	.	8cc-\	8cc-\	.	4A-\)	-i	]	4c-\	-i	.	4a-\	-i	.	.	4A-\)	]	4c-\)	]	4f\)	]	.	.	.	.	4f\	.	4f\	.	4A-\)	.	4c-\)	]	4a-\)	.	4ff\	]	4ff\)	]	4aa-\)	]	(4aa-\	.	4fff\	.
.	.	.	.	.	8a-\J	8a-\J	.	.	.	.	.	.	.	.	.	.	.	.	.	.	.	.	.	.	.	.	.	.	.	.	.	.	.	.	.	.	.	.	.	.	.	.	.	.	.	.	.
!LO:LB:g=original	!	!	!	!	!	!	!	!	!	!	!	!	!	!	!	!	!	!	!	!	!	!	!	!	!	!	!	!	!	!	!	!	!	!	!	!	!	!	!	!	!	!	!	!	!	!	!
!	!	!	!	!	!	!	!	!	!	!	!	!	!	!	!	!	!	!	!	!	!	!	!	!	!	!	!	!	!	!	!	!	!	!	!	!	!	!	!	!	!	!LO:LB:g=original	!	!	!	!	!
!	!	!	!	!	!	!	!	!	!	!	!	!	!	!	!	!	!	!	!	!	!	!	!	!	!	!	!	!	!	!LO:LB:g=original	!	!LO:LB:g=original	!	!	!	!	!	!	!	!	!	!	!	!	!	!	!
=30	=30	=30	=30	=30	=30	=30	=30	=30	=30	=30	=30	=30	=30	=30	=30	=30	=30	=30	=30	=30	=30	=30	=30	=30	=30	=30	=30	=30	=30	=30	=30	=30	=30	=30	=30	=30	=30	=30	=30	=30	=30	=30	=30	=30	=30	=30	=30
!	!	!	!	!	!	!	!	!	!	!	!	!	!	!	!	!	!	!	!	!	!	!	!	!LO:TX:a:t=2	!	!LO:TX:a:t=2	!	!LO:TX:b:i:t=ſolo	!	!	!	!	!	!	!	!	!	!	!	!	!	!	!	!	!	!	!
*	*	*	*	*	*tremolo	*tremolo	*	*	*	*	*	*	*	*	*	*	*	*	*	*	*	*	*	*	*	*	*	*	*	*	*	*	*	*	*	*	*	*	*	*	*	*	*	*	*	*	*
!	!LO:DY:t=po	!	!	!	!	!	!	!	!	!	!	!	!	!	!	!	!	!	!	!	!	!	!	!	!	!	!	!	!	!	!	!	!	!	!	!	!	!	!	!	!	!	!	!	!	!	!
!	!	!	!	!	!	!	!	!	!	!	!	!	!	!	!	!	!	!	!	!	!	!	!	!	!	!	!	!	!	!	!	!	!	!	!	!	!	!	!	!	!LO:DY:t=po	!	!	!	!	!	!
!	!	!	!	!	!	!	!	!	!	!	!	!	!	!	!	!	!	!	!	!	!	!	!	!	!	!	!	!	!	!	!	!	!LO:DY:t=po	!	!LO:DY:t=po	!	!	!	!	!	!	!	!	!	!	!	!
!	!	!	!	!	!	!	!	!	!	!	!	!	!	!	!	!	!	!	!LO:DY:t=po	!	!LO:DY:t=po	!	!LO:DY:t=po	!	!	!	!	!	!	!	!	!	!	!	!	!	!	!	!	!	!	!	!	!	!	!	!
4B-\	p	1ryy	8B-L	.	8g-/L	8g-/L	.	2B-\	Do-	.	2B-\	Do-	.	2g-\	Do-	.	1ryy	8B-\	p	8B-\	p	8B-/	p	1r	.	1r	.	(2e-\	.	(2g-X\	.	(2B-\	p	(2B-\	p	(2g-/	.	(2.ee-\	.	(2.ee-\	p	(2gg-\	.	2gg-\	.	2.eee-\	.
.	.	.	8B-	.	8g-/	8g-/	.	.	.	.	.	.	.	.	.	.	.	8r	.	8r	.	8r	.	.	.	.	.	.	.	.	.	.	.	.	.	.	.	.	.	.	.	.	.	.	.	.	.
4B-\	.	.	8B-	.	8g-/	8g-/	.	.	.	.	.	.	.	.	.	.	.	4r	.	4r	.	4r	.	.	.	.	.	.	.	.	.	.	.	.	.	.	.	.	.	.	.	.	.	.	.	.	.
.	.	.	8B-	.	8g-/J	8g-/J	.	.	.	.	.	.	.	.	.	.	.	.	.	.	.	.	.	.	.	.	.	.	.	.	.	.	.	.	.	.	.	.	.	.	.	.	.	.	.	.	.
4BB-/	.	.	8B-	.	8f/L	8f/L	.	2BB-/	-mi-	.	2A-\	-mi-	.	2f/	-mi-	.	.	2r	.	2r	.	2r	.	.	.	.	.	2B-/)	.	2f\)	.	2BB-\)	.	2BB-/)	.	2f/	.	.	.	.	.	2ff\)	.	2ff\)	.	.	.
.	.	.	8B-	.	8f/	8f/	.	.	.	.	.	.	.	.	.	.	.	.	.	.	.	.	.	.	.	.	.	.	.	.	.	.	.	.	.	.	.	.	.	.	.	.	.	.	.	.	.
4BB-/	.	.	8B-	.	8f/	8f/	.	.	.	.	.	.	.	.	.	.	.	.	.	.	.	.	.	.	.	.	.	.	.	.	.	.	.	.	.	.	.	4dd\	.	4ddn\	.	.	.	.	.	4dddn\	.
.	.	.	8B-J	.	8f/J	8f/J	.	.	.	.	.	.	.	.	.	.	.	.	.	.	.	.	.	.	.	.	.	.	.	.	.	.	.	.	.	.	.	.	.	.	.	.	.	.	.	.	.
!	!	!	!	!	!	!	!	!	!	!	!LO:LB:g=original	!	!	!LO:LB:g=original	!	!	!	!	!	!	!	!	!	!	!	!	!	!	!	!	!	!	!	!	!	!	!	!	!	!	!	!	!	!	!	!	!
=31	=31	=31	=31	=31	=31	=31	=31	=31	=31	=31	=31	=31	=31	=31	=31	=31	=31	=31	=31	=31	=31	=31	=31	=31	=31	=31	=31	=31	=31	=31	=31	=31	=31	=31	=31	=31	=31	=31	=31	=31	=31	=31	=31	=31	=31	=31	=31
!	!	!	!	!	!	!	!	!	!	!	!	!	!	!	!	!	!	!LO:TX:a:t=1	!	!LO:TX:a:t=1	!	!LO:TX:a:t=1	!	!	!	!	!	!	!	!	!	!	!	!	!	!	!	!	!	!	!	!	!	!	!	!	!
*	*	*	*	*	*Xtremolo	*Xtremolo	*	*	*	*	*	*	*	*	*	*	*	*	*	*	*	*	*	*	*	*	*	*	*	*	*	*	*	*	*	*	*	*	*	*	*	*	*	*	*	*	*
4E-\	.	1ryy	4e-\	.	8e-/L	8e-/L	.	4E-\	-ne	.	4G-/	-ne	.	4e-/	-ne	.	1ryy	1r	.	1r	.	1r	.	1r	.	1r	.	4e-\	.	4g-X\	.	4E-\	.	4E-\	.	4g-/)	.	4ee-\)	.	4ee-\)	.	4gg-\	.	4gg-\	.	4eee-\	.
.	.	.	.	.	8e-/	8e-/	.	.	.	.	.	.	.	.	.	.	.	.	.	.	.	.	.	.	.	.	.	.	.	.	.	.	.	.	.	.	.	.	.	.	.	.	.	.	.	.	.
4r	.	.	4r	.	8g-/	8g-/	.	4r	.	.	4r	.	.	4r	.	.	.	.	.	.	.	.	.	.	.	.	.	4r	.	4r	.	4r	.	4r	.	4r	.	4r	.	4r	.	4r	.	4r	.	4r	.
.	.	.	.	.	8b-/J	8b-/J	.	.	.	.	.	.	.	.	.	.	.	.	.	.	.	.	.	.	.	.	.	.	.	.	.	.	.	.	.	.	.	.	.	.	.	.	.	.	.	.	.
2r	.	.	2r	.	8ee-\L	8ee-\L	.	2r	.	.	2r	.	.	2r	.	.	.	.	.	.	.	.	.	.	.	.	.	2r	.	2r	.	2r	.	2r	.	2r	.	2r	.	2r	.	2r	.	2r	.	2r	.
.	.	.	.	.	8gg-\	8gg-\	.	.	.	.	.	.	.	.	.	.	.	.	.	.	.	.	.	.	.	.	.	.	.	.	.	.	.	.	.	.	.	.	.	.	.	.	.	.	.	.	.
.	.	.	.	.	8bb-\	8bb-\	.	.	.	.	.	.	.	.	.	.	.	.	.	.	.	.	.	.	.	.	.	.	.	.	.	.	.	.	.	.	.	.	.	.	.	.	.	.	.	.	.
.	.	.	.	.	8bb-\J	8bb-\J	.	.	.	.	.	.	.	.	.	.	.	.	.	.	.	.	.	.	.	.	.	.	.	.	.	.	.	.	.	.	.	.	.	.	.	.	.	.	.	.	.
!	!	!	!	!	!LO:LB:g=original	!	!	!	!	!	!	!	!	!	!	!	!	!	!	!	!	!	!	!	!	!	!	!	!	!	!	!	!	!	!	!	!	!	!	!	!	!	!	!	!	!	!
!	!	!	!	!	!	!	!	!	!	!	!	!	!	!	!	!	!	!	!	!	!	!	!	!	!	!	!	!	!	!	!	!	!	!LO:LB:g=original	!	!LO:LB:g=original	!	!	!	!	!	!	!	!	!	!	!
!	!	!	!	!	!	!	!	!	!	!	!	!	!	!	!	!	!	!	!	!	!	!LO:LB:g=original	!	!LO:LB:g=original	!	!	!	!	!	!	!	!	!	!	!	!	!	!	!	!	!	!	!	!	!	!	!
=32	=32	=32	=32	=32	=32	=32	=32	=32	=32	=32	=32	=32	=32	=32	=32	=32	=32	=32	=32	=32	=32	=32	=32	=32	=32	=32	=32	=32	=32	=32	=32	=32	=32	=32	=32	=32	=32	=32	=32	=32	=32	=32	=32	=32	=32	=32	=32
!	!	!	!	!	!	!	!	!	!	!	!	!	!	!	!	!	!	!	!	!	!	!	!	!	!LO:DY:a	!	!	!	!	!	!	!	!	!	!	!	!	!	!	!	!	!	!	!	!	!	!
2.Dn\	sfz	1ryy	2.B-/ 2.f	.	8r	8r	.	4.Dn\	lu-	.	4.B-\	lu-	.	4.ff\	lu-	.	1ryy	2.Dn\	f	2B-\	sfz	2.f\	sfz	2.B-/	sf	2.b-/	sf	2.B-/	sf	2.f\	.	2.DDn/	.	2.Dn\	.	[2.b-\	sf	(2.ff\	sfz	(2.ff\	sfz	2.aa-\	sfz	2.aa-\	sf	(2.fff\	sf
.	.	.	.	.	8aa-\L	8aa-\L	.	.	.	.	.	.	.	.	.	.	.	.	.	.	.	.	.	.	.	.	.	.	.	.	.	.	.	.	.	.	.	.	.	.	.	.	.	.	.	.	.
.	.	.	.	.	8ff\	8ff\	.	.	.	.	.	.	.	.	.	.	.	.	.	.	.	.	.	.	.	.	.	.	.	.	.	.	.	.	.	.	.	.	.	.	.	.	.	.	.	.	.
.	.	.	.	.	8ddn\J	8ddn\J	.	8D\	-ce-	.	8B-\	-ce-	.	8ff\	-ce-	.	.	.	.	.	.	.	.	.	.	.	.	.	.	.	.	.	.	.	.	.	.	.	.	.	.	.	.	.	.	.	.
.	.	.	.	.	8b-/L	8b-/L	.	2D\	-at	.	2B-\	-at	.	2a-\	-at	.	.	.	.	2A-\	sfz	.	.	.	.	.	.	.	.	.	.	.	.	.	.	.	.	.	.	.	.	.	.	.	.	.	.
.	.	.	.	.	8a-/	8a-/	.	.	.	.	.	.	.	.	.	.	.	.	.	.	.	.	.	.	.	.	.	.	.	.	.	.	.	.	.	.	.	.	.	.	.	.	.	.	.	.	.
4D\	fz	.	4Dn/ 4F	.	8B-/	8B-/	.	.	.	.	.	.	.	.	.	.	.	4D\	fz	.	.	(4f\	sf	4B-/	f	4b-/	.	4B-/	sfz	4f\	.	(4Dn\	.	(4D\	f	4b-\]	>]	4ff\	sfz	4ff\	.	(4aa-\	fz	(4aa-\	.	4fff\)	fz
.	.	.	.	.	8a-/J	8a-/J	.	.	.	.	.	.	.	.	.	.	.	.	.	.	.	.	.	.	.	.	.	.	.	.	.	.	.	.	.	.	.	.	.	.	.	.	.	.	.	.	.
!	!	!	!LO:LB:g=original	!	!	!	!	!LO:LB:g=original	!	!	!	!	!	!	!	!	!	!	!	!	!	!	!	!	!	!	!	!	!	!	!	!	!	!	!	!	!	!	!	!	!	!	!	!	!	!LO:LB:g=original	!
!	!	!	!	!	!	!	!	!	!	!	!	!	!	!	!	!	!	!	!	!	!	!	!	!	!	!	!	!	!	!	!	!	!	!	!	!	!	!LO:LB:g=original	!	!	!	!	!	!	!	!	!
!	!	!	!	!	!	!	!	!	!	!	!	!	!	!	!	!	!	!	!	!LO:LB:g=original	!	!	!	!	!	!LO:LB:g=original	!	!	!	!	!	!	!	!	!	!	!	!	!	!	!	!	!	!	!	!	!
=33	=33	=33	=33	=33	=33	=33	=33	=33	=33	=33	=33	=33	=33	=33	=33	=33	=33	=33	=33	=33	=33	=33	=33	=33	=33	=33	=33	=33	=33	=33	=33	=33	=33	=33	=33	=33	=33	=33	=33	=33	=33	=33	=33	=33	=33	=33	=33
*	*	*	*	*	*	*	*	*	*	*	*	*	*	*	*	*	*	*	*	*	*	*	*	*	*	*	*	*	*	*k[b-e-a-d-g-c-]	*	*	*	*	*	*	*	*	*	*	*	*	*	*	*	*	*
!	!	!	!	!	!	!	!	!	!	!	!	!	!LO:DY:a	!	!	!	!	!	!	!	!	!	!	!	!	!	!	!	!	!	!	!	!	!	!	!	!	!	!	!	!	!	!	!	!	!	!
(4E-\	.	1ryy	4E-/ 4G-	.	8g-/L	8g-/L	.	(4E-\	e-	.	2.B-\	e-	>	4g-\	e-	.	1ryy	(4E-\	>	(4G-/	>	(4B-/)	>	4e-/	.	4b-/	.	4E-/	.	4e-\	.	4E-\	>	4E-\)	>	4b-\	.	4gg-\)	.	4gg-\)	.	4gg-\	.	4gg-\)	.	4eee-\	.
.	.	.	.	.	8b-/	8b-/	.	.	.	.	.	.	.	.	.	.	.	.	.	.	.	.	.	.	.	.	.	.	.	.	.	.	.	.	.	.	.	.	.	.	.	.	.	.	.	.	.
4F\	.	.	4F/ 4A-	.	8dn/	8dn/	.	4F\)	.	.	.	.	.	2b-\	.	.	.	4F\	.	4A-/	.	4dn\	.	4r	.	4r	.	4r	.	4r	.	4F\	.	(4F\	.	2b-\	>	4dd\	>	4ddn\	.	2bb-\)	>	4r	.	4r	.
.	.	.	.	.	8f/J	8f/J	.	.	.	.	.	.	.	.	.	.	.	.	.	.	.	.	.	.	.	.	.	.	.	.	.	.	.	.	.	.	.	.	.	.	.	.	.	.	.	.	.
!	!	!	!	!	!LO:TX:t=P:problem=mixed beam	!LO:TX:t=P:problem=mixed beam	!	!	!	!LO:DY:a	!	!	!	!	!	!	!	!	!	!	!	!	!	!	!	!	!	!	!	!	!	!	!	!	!	!	!	!	!	!	!	!	!	!	!	!	!
4G-\	>	.	4G-/ 4B-	.	8e-\L	8e-\L	.	4G-\	.	>	.	.	.	.	.	.	.	4G-\	.	4B-\	.	4e-\	.	2r	.	2r	.	4r	.	4r	.	4G-\	.	4G-\	.	.	.	4ee-\	.	4ee-\	.	.	.	4r	.	4r	.
.	.	.	.	.	8ee-\	8ee-\	.	.	.	.	.	.	.	.	.	.	.	.	.	.	.	.	.	.	.	.	.	.	.	.	.	.	.	.	.	.	.	.	.	.	.	.	.	.	.	.	.
!	!	!	!	!	!	!	!	!	!	!	!	!	!	!	!	!	!	!	!	!	!	!	!	!	!	!	!	!	!	!	!	!	!	!	!	!	!	!	!	!	!	!	!	!	!LO:DY:t=po	!	!LO:DY:t=po
!	!	!	!	!	!	!	!	!	!	!	!	!	!	!	!	!	!	!	!	!	!	!	!	!	!	!	!	!	!LO:DY:t=po	!	!	!	!	!	!	!	!	!	!	!	!	!	!	!	!	!	!
4A-\)	]	.	4A-/ 4c-	.	8cc-\	8cc-\	.	4A-\	-i	]	4c-\	-i	.	4a-\	-i	.	.	4A-\)	]	4c-\	]	4f\)	]	.	.	.	.	4f\	p	4f\	pp	4A-\)	]	4A-\)	]	4a-\	]	4ff\	]	4ff\	.	4aa-\	]	4aa-\	p	4fff\	p
.	.	.	.	.	8a-\J	8a-\J	.	.	.	.	.	.	]	.	.	.	.	.	.	.	.	.	.	.	.	.	.	.	.	.	.	.	.	.	.	.	.	.	.	.	.	.	.	.	.	.	.
!	!	!	!	!	!	!LO:LB:g=original	!	!	!	!	!	!	!	!	!	!	!	!	!	!	!	!	!	!	!	!	!	!	!	!	!	!	!	!	!	!	!	!	!	!	!	!	!	!	!	!	!
!	!	!	!	!	!	!	!	!	!	!	!	!	!	!	!	!	!	!LO:LB:g=original	!	!	!	!	!	!	!	!	!	!	!	!	!	!	!	!	!	!	!	!	!	!LO:LB:g=original	!	!	!	!LO:LB:g=original	!	!	!
=34	=34	=34	=34	=34	=34	=34	=34	=34	=34	=34	=34	=34	=34	=34	=34	=34	=34	=34	=34	=34	=34	=34	=34	=34	=34	=34	=34	=34	=34	=34	=34	=34	=34	=34	=34	=34	=34	=34	=34	=34	=34	=34	=34	=34	=34	=34	=34
*	*	*	*	*	*tremolo	*tremolo	*	*	*	*	*	*	*	*	*	*	*	*	*	*	*	*	*	*	*	*	*	*	*	*k[b-e-a-d-g-c-]	*	*	*	*	*	*	*	*	*	*	*	*	*	*	*	*	*
!	!	!	!	!	!	!	!	!	!	!	!	!	!	!	!	!	!	!	!	!	!	!	!	!LO:TX:a:t=5.	!	!LO:TX:a:t=5.	!	!LO:TX:a:i:t=ſolo	!	!	!	!	!	!	!	!	!	!	!	!	!	!	!	!	!	!	!
!	!LO:DY:t=po	!	!	!	!	!	!	!	!	!LO:DY:b:t=p.	!	!	!	!	!	!	!	!	!	!	!	!	!	!	!	!	!	!	!	!	!	!	!	!	!	!	!	!	!	!	!	!	!	!	!	!	!
!	!	!	!	!	!	!	!	!	!	!	!	!	!	!	!	!	!	!	!	!	!	!	!	!	!	!	!	!	!	!	!	!	!	!	!	!	!	!	!	!	!	!	!LO:DY:t=po	!	!	!	!
!	!	!	!	!	!	!	!	!	!	!	!	!	!	!	!	!	!	!	!	!	!	!	!LO:DY:t=po	!	!	!	!	!	!	!	!	!	!LO:DY:t=po	!	!LO:DY:t=po	!	!	!	!	!	!	!	!	!	!	!	!
4B-\	p	1ryy	8B-L	.	8g-/L	8g-/L	.	2B-\	Do-	p	2B-\	Do-	.	2g-\	Do-	.	1ryy	8B-\	.	8B-\)	.	8B-/	p	1r	.	1r	.	(2e-\	.	(2g-X\	.	(2B-\	p	(2B-\	p	(2g-\	.	(2.ee-\	.	2.ee-\	.	(2gg-\	p	(2gg-\	.	(2.eee-\	.
.	.	.	8B-	.	8g-/	8g-/	.	.	.	.	.	.	.	.	.	.	.	8r	.	8r	.	8r	.	.	.	.	.	.	.	.	.	.	.	.	.	.	.	.	.	.	.	.	.	.	.	.	.
4B-\	.	.	8B-	.	8g-/	8g-/	.	.	.	.	.	.	.	.	.	.	.	4r	.	4r	.	4r	.	.	.	.	.	.	.	.	.	.	.	.	.	.	.	.	.	.	.	.	.	.	.	.	.
.	.	.	8B-	.	8g-/J	8g-/J	.	.	.	.	.	.	.	.	.	.	.	.	.	.	.	.	.	.	.	.	.	.	.	.	.	.	.	.	.	.	.	.	.	.	.	.	.	.	.	.	.
4BB-/	.	.	8B-	.	8f/L	8f/L	.	2BB-/	-mi-	.	2A-\	-mi-	.	2f/	.	.	.	2r	.	2r	.	2r	.	.	.	.	.	2B-/)	.	2f\)	.	2BB-\)	.	2BB-/)	.	2f\)	.	.	.	.	.	2ff\)	.	2ff\)	.	.	.
.	.	.	8B-	.	8f/	8f/	.	.	.	.	.	.	.	.	.	.	.	.	.	.	.	.	.	.	.	.	.	.	.	.	.	.	.	.	.	.	.	.	.	.	.	.	.	.	.	.	.
4BB-/	.	.	8B-	.	8f/	8f/	.	.	.	.	.	.	.	.	.	.	.	.	.	.	.	.	.	.	.	.	.	.	.	.	.	.	.	.	.	.	.	4dd\)	.	4ddn\	.	.	.	.	.	4dddn\)	.
.	.	.	8B-J	.	8f/J	8f/J	.	.	.	.	.	.	.	.	.	.	.	.	.	.	.	.	.	.	.	.	.	.	.	.	.	.	.	.	.	.	.	.	.	.	.	.	.	.	.	.	.
*	*	*	*	*	*	*Xtremolo	*	*	*	*	*	*	*	*	*	*	*	*	*	*	*	*	*	*	*	*	*	*	*	*	*	*	*	*	*	*	*	*	*	*	*	*	*	*	*	*	*
*	*	*	*	*	*Xtremolo	*	*	*	*	*	*	*	*	*	*	*	*	*	*	*	*	*	*	*	*	*	*	*	*	*	*	*	*	*	*	*	*	*	*	*	*	*	*	*	*	*	*
*	*	*	*Xtremolo	*	*	*	*	*	*	*	*	*	*	*	*	*	*	*	*	*	*	*	*	*	*	*	*	*	*	*	*	*	*	*	*	*	*	*	*	*	*	*	*	*	*	*	*
!LO:LB:g=original	!	!	!	!	!	!	!	!	!	!	!	!	!	!	!	!	!	!	!	!	!	!	!	!	!	!	!	!	!	!	!	!	!	!	!	!	!	!	!	!	!	!	!	!	!	!	!
=35	=35	=35	=35	=35	=35	=35	=35	=35	=35	=35	=35	=35	=35	=35	=35	=35	=35	=35	=35	=35	=35	=35	=35	=35	=35	=35	=35	=35	=35	=35	=35	=35	=35	=35	=35	=35	=35	=35	=35	=35	=35	=35	=35	=35	=35	=35	=35
*	*	*	*	*	*	*	*	*^	*	*	*	*	*	*	*	*	*	*	*	*	*	*	*	*	*	*	*	*	*	*	*	*	*	*	*	*	*	*	*	*	*	*	*	*	*	*	*
!	!	!	!	!	!	!	!	!	!	!	!	!	!	!	!	!	!	!	!	!	!	!	!	!	!	!	!	!	!	!	!LO:TX:b:t=Solo	!	!	!	!	!	!	!	!	!	!	!	!	!	!	!	!	!
!	!LO:DY:t=po	!	!	!	!	!	!	!	!	!	!LO:DY:b:t=p.	!	!	!	!	!	!	!	!LO:TX:a:t=5.	!	!LO:TX:a:t=4	!	!LO:TX:a:t=4	!	!	!	!	!	!	!	!LO:TX:a:i:t=Calando	!	!	!	!	!	!	!	!	!	!	!	!	!	!	!	!	!
!	!	!	!	!	!	!	!	!	!	!	!	!	!	!	!	!	!	!	!	!	!	!	!	!	!	!	!	!	!	!LO:DY:t=po	!	!LO:DY:t=po	!	!	!	!	!	!	!	!	!	!	!	!	!	!	!	!
[1E-	p	1ryy	4E-/	.	4e-/	4e-/	.	4E-/	[1E-	-ne	p	4G-/	-ne	.	1e-	.	.	1ryy	1r	.	1r	.	1r	.	1r	.	1r	.	[1E-	p	[1e-	p	4E-\	.	4E-\	.	4e-/	.	4ee-\	.	4ee-\	.	4ee-\	.	4ee-\	.	4eee-\	.
.	.	.	4r	.	4r	4r	.	4r	.	.	.	4r	.	.	.	.	.	.	.	.	.	.	.	.	.	.	.	.	.	.	.	.	4r	.	4r	.	4r	.	4r	.	4r	.	4r	.	4r	.	4r	.
!	!	!	!	!	!	!	!	!	!	!	!	!	!	!	!	!	!	!	!	!	!	!	!	!	!	!	!	!	!	!	!	!	!LO:TX:b:i:t=Solo	!	!LO:TX:b:i:t=Solo	!	!	!	!	!	!	!	!	!	!	!	!	!
.	.	.	2r	.	2r	2r	.	4Gn/	.	Do-	.	4B-\	Do-	.	.	.	.	.	.	.	.	.	.	.	.	.	.	.	.	.	.	.	2Gn\	p	2B-\	.	2r	.	2r	.	2r	.	2r	.	2r	.	2r	.
.	.	.	.	.	.	.	.	4G/	.	-na	.	4B-\	-na	.	.	.	.	.	.	.	.	.	.	.	.	.	.	.	.	.	.	.	.	.	.	.	.	.	.	.	.	.	.	.	.	.	.	.
!	!	!	!	!	!	!	!	!	!	!	!	!	!	!	!	!	!	!	!	!	!	!	!	!	!	!	!	!	!	!	!	!	!	!	!	!	!	!	!	!	!	!LO:LB:g=original	!	!	!	!	!	!
!	!	!	!	!	!	!	!	!	!	!	!	!	!	!	!	!	!	!	!	!	!	!	!	!	!	!	!	!	!	!	!	!	!LO:LB:g=original	!	!	!	!	!	!	!	!	!	!	!	!	!	!	!
!	!	!	!	!	!	!	!	!	!	!	!	!	!	!	!	!	!	!	!	!	!	!	!	!	!	!	!	!	!LO:LB:g=original	!	!	!	!	!	!	!	!	!	!	!	!	!	!	!	!	!	!	!
=36	=36	=36	=36	=36	=36	=36	=36	=36	=36	=36	=36	=36	=36	=36	=36	=36	=36	=36	=36	=36	=36	=36	=36	=36	=36	=36	=36	=36	=36	=36	=36	=36	=36	=36	=36	=36	=36	=36	=36	=36	=36	=36	=36	=36	=36	=36	=36	=36
!LO:TX:b:i:t=e Calando	!	!	!LO:TX:a:t=4.	!	!LO:TX:a:t=4	!LO:TX:a:t=4.	!	!	!	!	!	!	!	!	!	!	!	!	!	!	!	!	!	!	!	!	!	!	!LO:TX:a:i:t=Calando	!	!	!	!LO:TX:b:i:t=Calando	!	!	!	!LO:TX:a:t=4.	!	!LO:TX:a:t=3.	!	!LO:TX:a:t=3.	!	!LO:TX:a:t=3.	!	!LO:TX:a:t=3.	!	!LO:TX:a:t=3.	!
1E-]	.	1ryy	1r	.	1r	1r	.	4B-/	1E-]	e-	.	4c-X\	e-	.	1e-	.	.	1r	1r	.	1r	.	1r	.	1r	.	1r	.	1E-_	pp	1e-_	.	(4A-\	.	(4c-\	.	1r	.	1r	.	1r	.	1r	.	1r	.	1r	.
.	.	.	.	.	.	.	.	8G-/L	.	-i	.	8B-\L	-i	.	.	.	.	.	.	.	.	.	.	.	.	.	.	.	.	.	.	.	8Gn\L	.	8B-\L	.	.	.	.	.	.	.	.	.	.	.	.	.
.	.	.	.	.	.	.	.	8A-/J	.	.	.	8c-\J	.	.	.	.	.	.	.	.	.	.	.	.	.	.	.	.	.	.	.	.	8A-\J	.	8c-\J	.	.	.	.	.	.	.	.	.	.	.	.	.
!	!	!	!	!	!	!	!	!	!	!	!	!LO:LB:g=original	!	!	!	!	!	!	!	!	!	!	!	!	!	!	!	!	!	!	!	!	!	!	!	!	!	!	!	!	!	!	!	!	!	!	!	!
.	.	.	.	.	.	.	.	4.B-/	.	Do-	>	4.d-X\	Do-	.	.	.	.	.	.	.	.	.	.	.	.	.	.	.	.	.	.	.	4.B-\	.	4.d-X\	.	.	.	.	.	.	.	.	.	.	.	.	.
.	.	.	.	.	.	.	.	8A-/	.	-mi-	]	8c-\	-mi-	.	.	.	.	.	.	.	.	.	.	.	.	.	.	.	.	.	.	.	8A-\)	.	8c-\)	.	.	.	.	.	.	.	.	.	.	.	.	.
=37	=37	=37	=37	=37	=37	=37	=37	=37	=37	=37	=37	=37	=37	=37	=37	=37	=37	=37	=37	=37	=37	=37	=37	=37	=37	=37	=37	=37	=37	=37	=37	=37	=37	=37	=37	=37	=37	=37	=37	=37	=37	=37	=37	=37	=37	=37	=37	=37
[1E-	pp	1r	1r	.	1r	1r	.	4Gn/	1E-	-ne	.	4B-\	-ne	.	1e-	.	.	1r	1r	.	1r	.	1r	.	1r	.	1r	.	1E-_	.	1e-_	pp	4Gn\	.	4B-\	.	1r	.	1r	.	1r	.	1r	.	1r	.	1r	.
.	.	.	.	.	.	.	.	4r	.	.	.	4r	.	.	.	.	.	.	.	.	.	.	.	.	.	.	.	.	.	.	.	.	4r	.	4r	.	.	.	.	.	.	.	.	.	.	.	.	.
.	.	.	.	.	.	.	.	4G/	.	Do-	.	4B-\	Do-	.	.	.	.	.	.	.	.	.	.	.	.	.	.	.	.	.	.	.	(2G\	pp	2B-\	pp	.	.	.	.	.	.	.	.	.	.	.	.
.	.	.	.	.	.	.	.	4G/	.	-na	.	4B-\	-na	.	.	.	.	.	.	.	.	.	.	.	.	.	.	.	.	.	.	.	.	.	.	.	.	.	.	.	.	.	.	.	.	.	.	.
!	!	!	!	!	!	!	!	!	!LO:LB:g=original	!	!	!	!	!	!	!	!	!	!	!	!	!	!	!	!	!	!	!	!	!	!	!	!	!	!	!	!	!	!	!	!	!	!	!	!	!	!	!
!	!	!	!	!	!	!	!	!	!	!	!	!	!	!	!	!	!	!	!	!	!	!	!	!	!	!	!	!	!	!	!LO:LB:g=original	!	!LO:LB:g=original	!	!	!	!	!	!	!	!	!	!	!	!	!	!	!
=38	=38	=38	=38	=38	=38	=38	=38	=38	=38	=38	=38	=38	=38	=38	=38	=38	=38	=38	=38	=38	=38	=38	=38	=38	=38	=38	=38	=38	=38	=38	=38	=38	=38	=38	=38	=38	=38	=38	=38	=38	=38	=38	=38	=38	=38	=38	=38	=38
!LO:TX:b:i:t=e perdendosi	!	!	!	!	!	!	!	!	!	!	!	!	!	!	!	!	!	!	!	!	!	!	!	!	!	!	!	!	!LO:TX:a:i:t=perdendsi	!	!LO:TX:a:i:t=perdendši	!	!LO:TX:b:i:t=perdendoši	!	!LO:TX:b:i:t=perdendosi.	!	!	!	!	!	!	!	!	!	!	!	!	!
1E-_	.	1r	1r	.	1r	1r	.	4A-/	1E-	e-	.	4c-X\	e-	.	1e-	-mi-	.	1ryy	1r	.	1r	.	1r	.	1r	.	1r	.	1E-_	.	1e-_	.	4A-\	.	(4c-\	.	1r	.	1r	.	1r	.	1r	.	1r	.	1r	.
.	.	.	.	.	.	.	.	8Gn/L	.	-i	.	8B-\L	-i	.	.	.	.	.	.	.	.	.	.	.	.	.	.	.	.	.	.	.	8Gn\L	.	8B-\L	.	.	.	.	.	.	.	.	.	.	.	.	.
.	.	.	.	.	.	.	.	8A-/J	.	.	.	8c-\J	.	.	.	.	.	.	.	.	.	.	.	.	.	.	.	.	.	.	.	.	8A-\J	.	8c-\J	.	.	.	.	.	.	.	.	.	.	.	.	.
.	.	.	.	.	.	.	.	4.B-/	.	Re-	.	4.d-X\	Re-	.	.	.	.	.	.	.	.	.	.	.	.	.	.	.	.	.	.	.	4.B-\	.	4.d-\	.	.	.	.	.	.	.	.	.	.	.	.	.
.	.	.	.	.	.	.	.	8A-/	.	-qui-	.	8c-\	-qui-	.	.	.	.	.	.	.	.	.	.	.	.	.	.	.	.	.	.	.	8A-\)	.	8c-\)	.	.	.	.	.	.	.	.	.	.	.	.	.
*	*	*	*	*	*	*	*	*v	*v	*	*	*	*	*	*	*	*	*	*	*	*	*	*	*	*	*	*	*	*	*	*	*	*	*	*	*	*	*	*	*	*	*	*	*	*	*	*	*
=39	=39	=39	=39	=39	=39	=39	=39	=39	=39	=39	=39	=39	=39	=39	=39	=39	=39	=39	=39	=39	=39	=39	=39	=39	=39	=39	=39	=39	=39	=39	=39	=39	=39	=39	=39	=39	=39	=39	=39	=39	=39	=39	=39	=39	=39	=39	=39
!	!	!	!	!	!	!	!	!	!	!	!	!	!	!	!	!	!LO:TX:a:i:t=Fine	!LO:TX:a:i:t=Fine.	!	!LO:TX:b:i:t=Fine.	!	!LO:TX:b:i:t=Fine	!	!LO:TX:b:i:t=Fine.	!	!LO:TX:b:i:t=Fine.	!	!LO:TX:b:i:t=Fine.	!	!LO:TX:b:i:t=Fine	!	!LO:TX:b:i:t=Fine	!	!LO:TX:b:i:t=Fine	!	!LO:TX:b:i:t=Fine.	!	!LO:TX:b:i:t=Fine	!	!LO:TX:b:i:t=Fine	!	!LO:TX:b:i:t=Fine	!	!	!	!LO:TX:b:i:t=Fine.	!
1E-;]	.	1r	1r	.	1r;	1r	.	1E-; 1Gn	-em.	.	1B-;	-em.	.	1e-;	-ne.	.	1ryy	1r	.	1r;	.	1r;	.	1r;	.	1r;	.	1E-;]	.	1e-;]	.	1Gn;	.	1B-;	.	1r;	.	1r;	.	1r;	.	1r;	.	1r;	.	1r;	.
==	==	==	==	==	==	==	==	==	==	==	==	==	==	==	==	==	==	==	==	==	==	==	==	==	==	==	==	==	==	==	==	==	==	==	==	==	==	==	==	==	==	==	==	==	==	==	==
*-	*-	*-	*-	*-	*-	*-	*-	*-	*-	*-	*-	*-	*-	*-	*-	*-	*-	*-	*-	*-	*-	*-	*-	*-	*-	*-	*-	*-	*-	*-	*-	*-	*-	*-	*-	*-	*-	*-	*-	*-	*-	*-	*-	*-	*-	*-	*-
!!!system-decoration: [(s1,s2,s3,s4,s5,s6,s7,s8)][(s9,s10,s11,s12,s13,s14,s15)][s16][(s17,s18,s19)][(s20,s21,s22,s23,s24)]
!!!ENC: Tomasz Grochalski
!!!END: 2020-08-15
!!!ENC: Jan Barakat
!!!END: 2022-02-08
!!!YEC: Copyright 2022 Narodowy Instytut Fryderyka Chopina (https://polishscores.org)
!!!YEM: License CC-BY-4.0 (https://creativecommons.org/licenses/by/4.0)
